;FLAVOR:UltiGCode
;TIME:4036
;MATERIAL:5354
;MATERIAL2:0
;NOZZLE_DIAMETER:0.4
;MINX:57.674
;MINY:89.174
;MINZ:0.3
;MAXX:133.826
;MAXY:133.826
;MAXZ:6
;Generated with Cura_SteamEngine 4.12.1
M82 ;absolute extrusion mode
G0 F3000 Y50 ;avoid prime blob
G92 E0
G92 E0
G10
;LAYER_COUNT:58
;LAYER:0
M107
G0 F3600 X62.343 Y91.34 Z0.3
;TYPE:SKIRT
G11
G1 F1800 X62.943 Y90.934 E0.08693
G1 X63.206 Y90.773 E0.12394
G1 X63.749 Y90.469 E0.19862
G1 X64.023 Y90.33 E0.23548
G1 X64.655 Y90.044 E0.31873
G1 X64.94 Y89.93 E0.35556
G1 X65.577 Y89.707 E0.43655
G1 X65.871 Y89.618 E0.47341
G1 X66.538 Y89.447 E0.55604
G1 X66.84 Y89.384 E0.59306
G1 X67.519 Y89.274 E0.6756
G1 X67.824 Y89.238 E0.71246
G1 X68.336 Y89.194 E0.77412
G1 X68.892 Y89.176 E0.84088
G1 X91.044 Y89.174 E3.49912
G1 X91.761 Y89.201 E3.58522
G1 X92.464 Y89.271 E3.67
G1 X92.76 Y89.314 E3.70589
G1 X93.378 Y89.429 E3.78132
G1 X93.671 Y89.496 E3.81739
G1 X94.312 Y89.672 E3.89716
G1 X94.596 Y89.763 E3.93294
G1 X95.216 Y89.991 E4.01222
G1 X95.751 Y90.227 E4.08238
G1 X96.44 Y89.93 E4.17242
G1 X97.077 Y89.707 E4.25341
G1 X97.371 Y89.618 E4.29027
G1 X98.038 Y89.447 E4.3729
G1 X98.34 Y89.384 E4.40992
G1 X99.019 Y89.274 E4.49246
G1 X99.324 Y89.238 E4.52931
G1 X99.836 Y89.194 E4.59098
G1 X100.392 Y89.176 E4.65774
G1 X122.544 Y89.174 E7.31598
G1 X123.261 Y89.201 E7.40208
G1 X123.964 Y89.271 E7.48685
G1 X124.26 Y89.314 E7.52275
G1 X124.878 Y89.429 E7.59818
G1 X125.171 Y89.496 E7.63425
G1 X125.812 Y89.672 E7.71401
G1 X126.096 Y89.763 E7.7498
G1 X126.716 Y89.991 E7.82907
G1 X126.992 Y90.106 E7.86495
G1 X127.573 Y90.377 E7.94188
G1 X127.84 Y90.515 E7.97795
G1 X128.433 Y90.855 E8.05998
G1 X128.684 Y91.014 E8.09563
G1 X129.232 Y91.394 E8.17565
G1 X129.47 Y91.575 E8.21153
G1 X129.902 Y91.929 E8.27856
G1 X130.094 Y92.098 E8.30925
G1 X130.634 Y92.622 E8.39954
G1 X130.869 Y92.873 E8.44081
G1 X131.266 Y93.331 E8.51354
G1 X131.426 Y93.531 E8.54427
G1 X131.818 Y94.067 E8.62396
G1 X132.008 Y94.351 E8.66496
G1 X132.355 Y94.921 E8.74504
G1 X132.478 Y95.144 E8.7756
G1 X132.776 Y95.743 E8.85589
G1 X132.916 Y96.058 E8.89725
G1 X133.188 Y96.759 E8.98748
G1 X133.283 Y97.044 E9.02353
G1 X133.439 Y97.576 E9.09006
G1 X133.513 Y97.865 E9.12586
G1 X133.664 Y98.602 E9.21614
G1 X133.71 Y98.898 E9.25208
G1 X133.784 Y99.548 E9.33059
G1 X133.805 Y99.846 E9.36643
G1 X133.824 Y100.393 E9.43211
G1 X133.826 Y122.545 E12.09035
G1 X133.795 Y123.31 E12.18223
G1 X133.728 Y123.97 E12.26184
G1 X133.684 Y124.274 E12.2987
G1 X133.56 Y124.929 E12.37869
G1 X133.49 Y125.229 E12.41566
G1 X133.296 Y125.916 E12.50132
G1 X133.199 Y126.208 E12.53825
G1 X132.965 Y126.825 E12.61743
G1 X132.844 Y127.107 E12.65426
G1 X132.543 Y127.73 E12.73728
G1 X132.397 Y128.001 E12.77422
G1 X132.059 Y128.57 E12.85364
G1 X131.891 Y128.827 E12.89049
G1 X131.485 Y129.391 E12.97388
G1 X131.294 Y129.633 E13.01087
G1 X130.891 Y130.104 E13.08526
G1 X130.713 Y130.296 E13.11668
G1 X130.226 Y130.778 E13.1989
G1 X129.964 Y131.015 E13.24129
G1 X129.403 Y131.476 E13.32843
G1 X129.157 Y131.66 E13.36529
G1 X128.557 Y132.066 E13.45223
G1 X128.294 Y132.227 E13.48923
G1 X127.751 Y132.531 E13.56391
G1 X127.477 Y132.67 E13.60078
G1 X126.845 Y132.956 E13.68402
G1 X126.56 Y133.07 E13.72086
G1 X125.923 Y133.293 E13.80184
G1 X125.629 Y133.382 E13.83871
G1 X124.962 Y133.553 E13.92133
G1 X124.66 Y133.616 E13.95835
G1 X123.981 Y133.726 E14.0409
G1 X123.676 Y133.762 E14.07775
G1 X123.164 Y133.806 E14.13942
G1 X122.608 Y133.824 E14.20617
G1 X100.455 Y133.826 E16.86453
G1 X99.69 Y133.795 E16.95641
G1 X99.03 Y133.728 E17.03601
G1 X98.726 Y133.684 E17.07287
G1 X98.071 Y133.56 E17.15287
G1 X97.771 Y133.49 E17.18984
G1 X97.084 Y133.296 E17.2755
G1 X96.792 Y133.199 E17.31242
G1 X96.175 Y132.965 E17.39161
G1 X95.748 Y132.774 E17.44774
G1 X95.06 Y133.07 E17.53762
G1 X94.423 Y133.293 E17.61861
G1 X94.129 Y133.382 E17.65547
G1 X93.462 Y133.553 E17.7381
G1 X93.16 Y133.616 E17.77512
G1 X92.481 Y133.726 E17.85766
G1 X92.176 Y133.762 E17.89451
G1 X91.664 Y133.806 E17.95618
G1 X91.108 Y133.824 E18.02294
G1 X68.955 Y133.826 E20.6813
G1 X68.19 Y133.795 E20.77317
G1 X67.53 Y133.728 E20.85278
G1 X67.226 Y133.684 E20.88964
G1 X66.571 Y133.56 E20.96963
G1 X66.271 Y133.49 E21.0066
G1 X65.584 Y133.296 E21.09227
G1 X65.292 Y133.199 E21.12919
G1 X64.675 Y132.965 E21.20837
G1 X64.393 Y132.844 E21.2452
G1 X63.77 Y132.543 E21.32823
G1 X63.499 Y132.397 E21.36516
G1 X62.93 Y132.059 E21.44458
G1 X62.673 Y131.891 E21.48143
G1 X62.109 Y131.485 E21.56482
G1 X61.867 Y131.294 E21.60182
G1 X61.396 Y130.891 E21.6762
G1 X60.857 Y130.37 E21.76616
G1 X60.719 Y130.225 E21.79018
G1 X60.313 Y129.764 E21.86389
G1 X60.119 Y129.525 E21.90083
G1 X59.724 Y128.994 E21.98025
G1 X59.552 Y128.741 E22.01696
G1 X59.24 Y128.242 E22.08758
G1 X59.109 Y128.014 E22.11914
G1 X58.768 Y127.349 E22.20882
G1 X58.622 Y127.027 E22.25124
G1 X58.397 Y126.476 E22.32266
G1 X58.307 Y126.229 E22.35421
G1 X58.086 Y125.519 E22.44344
G1 X57.998 Y125.18 E22.48547
G1 X57.85 Y124.478 E22.57156
G1 X57.8 Y124.172 E22.60877
G1 X57.718 Y123.475 E22.69299
G1 X57.696 Y123.17 E22.72968
G1 X57.676 Y122.61 E22.79692
G1 X57.674 Y100.455 E25.45552
G1 X57.705 Y99.69 E25.5474
G1 X57.772 Y99.03 E25.62701
G1 X57.816 Y98.726 E25.66387
G1 X57.94 Y98.071 E25.74386
G1 X58.01 Y97.771 E25.78083
G1 X58.204 Y97.084 E25.86649
G1 X58.301 Y96.792 E25.90342
G1 X58.535 Y96.175 E25.9826
G1 X58.656 Y95.893 E26.01943
G1 X58.957 Y95.27 E26.10245
G1 X59.103 Y94.999 E26.13939
G1 X59.441 Y94.43 E26.21881
G1 X59.609 Y94.173 E26.25566
G1 X60.015 Y93.609 E26.33905
G1 X60.206 Y93.367 E26.37604
G1 X60.609 Y92.896 E26.45043
G1 X60.787 Y92.704 E26.48185
G1 X61.274 Y92.222 E26.56407
G1 X61.536 Y91.985 E26.60646
G1 X62.097 Y91.524 E26.6936
G1 X62.343 Y91.34 E26.73046
G0 F3600 X62.583 Y91.66
G1 F1800 X63.151 Y91.275 E26.8128
G1 X63.414 Y91.114 E26.84981
G1 X63.93 Y90.826 E26.92072
G1 X64.204 Y90.687 E26.95759
G1 X64.804 Y90.415 E27.03664
G1 X65.089 Y90.301 E27.07348
G1 X65.693 Y90.089 E27.15029
G1 X65.987 Y90 E27.18715
G1 X66.62 Y89.839 E27.26553
G1 X66.922 Y89.776 E27.30255
G1 X67.566 Y89.671 E27.38085
G1 X68.357 Y89.594 E27.47622
G1 X68.892 Y89.576 E27.54046
G1 X91.044 Y89.574 E30.1987
G1 X91.74 Y89.601 E30.28228
G1 X92.407 Y89.667 E30.36271
G1 X92.703 Y89.71 E30.3986
G1 X93.289 Y89.819 E30.47013
G1 X93.582 Y89.886 E30.5062
G1 X94.19 Y90.053 E30.58186
G1 X94.474 Y90.144 E30.61765
G1 X95.062 Y90.36 E30.69282
G1 X95.749 Y90.666 E30.78306
G1 X96.304 Y90.415 E30.85616
G1 X96.589 Y90.301 E30.89299
G1 X97.193 Y90.089 E30.96981
G1 X97.487 Y90 E31.00667
G1 X98.12 Y89.839 E31.08505
G1 X98.422 Y89.776 E31.12207
G1 X99.066 Y89.671 E31.20037
G1 X99.857 Y89.594 E31.29574
G1 X100.392 Y89.576 E31.35997
G1 X122.544 Y89.574 E34.01821
G1 X123.24 Y89.601 E34.1018
G1 X123.907 Y89.667 E34.18223
G1 X124.203 Y89.71 E34.21812
G1 X124.789 Y89.819 E34.28965
G1 X125.082 Y89.886 E34.32571
G1 X125.69 Y90.053 E34.40138
G1 X125.974 Y90.144 E34.43716
G1 X126.562 Y90.36 E34.51233
G1 X126.838 Y90.475 E34.54821
G1 X127.39 Y90.732 E34.62128
G1 X127.657 Y90.87 E34.65735
G1 X128.219 Y91.193 E34.73513
G1 X128.47 Y91.352 E34.77079
G1 X128.989 Y91.713 E34.84665
G1 X129.227 Y91.894 E34.88253
G1 X129.637 Y92.229 E34.94607
G1 X129.829 Y92.398 E34.97676
G1 X130.342 Y92.895 E35.06247
G1 X130.577 Y93.146 E35.10373
G1 X130.953 Y93.581 E35.17273
G1 X131.113 Y93.781 E35.20347
G1 X131.486 Y94.289 E35.27909
G1 X131.676 Y94.573 E35.3201
G1 X132.005 Y95.114 E35.39608
G1 X132.128 Y95.337 E35.42664
G1 X132.41 Y95.906 E35.50285
G1 X132.55 Y96.221 E35.54421
G1 X132.808 Y96.886 E35.62981
G1 X132.903 Y97.171 E35.66586
G1 X133.052 Y97.675 E35.72892
G1 X133.126 Y97.964 E35.76472
G1 X133.269 Y98.664 E35.85046
G1 X133.315 Y98.96 E35.8864
G1 X133.385 Y99.576 E35.9608
G1 X133.406 Y99.874 E35.99665
G1 X133.424 Y100.393 E36.05897
G1 X133.426 Y122.545 E38.71721
G1 X133.395 Y123.286 E38.8062
G1 X133.332 Y123.913 E38.88182
G1 X133.288 Y124.217 E38.91868
G1 X133.17 Y124.838 E38.99454
G1 X133.1 Y125.138 E39.0315
G1 X132.917 Y125.79 E39.11277
G1 X132.82 Y126.082 E39.14969
G1 X132.597 Y126.667 E39.22482
G1 X132.476 Y126.949 E39.26164
G1 X132.191 Y127.541 E39.34048
G1 X132.045 Y127.812 E39.37742
G1 X131.724 Y128.351 E39.4527
G1 X131.556 Y128.608 E39.48955
G1 X131.171 Y129.144 E39.56874
G1 X130.98 Y129.386 E39.60574
G1 X130.598 Y129.832 E39.6762
G1 X130.42 Y130.024 E39.70762
G1 X129.957 Y130.481 E39.78569
G1 X129.695 Y130.718 E39.82808
G1 X129.163 Y131.156 E39.91078
G1 X128.917 Y131.34 E39.94764
G1 X128.349 Y131.725 E40.02998
G1 X128.086 Y131.886 E40.06699
G1 X127.57 Y132.174 E40.1379
G1 X127.296 Y132.313 E40.17477
G1 X126.696 Y132.585 E40.25382
G1 X126.411 Y132.699 E40.29065
G1 X125.807 Y132.911 E40.36747
G1 X125.513 Y133 E40.40433
G1 X124.88 Y133.161 E40.48271
G1 X124.578 Y133.224 E40.51973
G1 X123.934 Y133.329 E40.59803
G1 X123.143 Y133.406 E40.6934
G1 X122.608 Y133.424 E40.75763
G1 X100.455 Y133.426 E43.41599
G1 X99.714 Y133.395 E43.50499
G1 X99.087 Y133.332 E43.58061
G1 X98.783 Y133.288 E43.61747
G1 X98.162 Y133.17 E43.69332
G1 X97.862 Y133.1 E43.73029
G1 X97.21 Y132.917 E43.81156
G1 X96.918 Y132.82 E43.84848
G1 X96.333 Y132.597 E43.92361
G1 X95.753 Y132.333 E44.00008
G1 X95.196 Y132.585 E44.07344
G1 X94.911 Y132.699 E44.11027
G1 X94.307 Y132.911 E44.18709
G1 X94.013 Y133 E44.22395
G1 X93.38 Y133.161 E44.30233
G1 X93.078 Y133.224 E44.33935
G1 X92.434 Y133.329 E44.41765
G1 X91.643 Y133.406 E44.51302
G1 X91.108 Y133.424 E44.57725
G1 X68.955 Y133.426 E47.23561
G1 X68.214 Y133.395 E47.32461
G1 X67.587 Y133.332 E47.40023
G1 X67.283 Y133.288 E47.43709
G1 X66.662 Y133.17 E47.51294
G1 X66.362 Y133.1 E47.54991
G1 X65.71 Y132.917 E47.63117
G1 X65.418 Y132.82 E47.6681
G1 X64.833 Y132.597 E47.74322
G1 X64.551 Y132.476 E47.78005
G1 X63.959 Y132.191 E47.85889
G1 X63.688 Y132.045 E47.89583
G1 X63.149 Y131.724 E47.97111
G1 X62.892 Y131.556 E48.00796
G1 X62.356 Y131.171 E48.08715
G1 X62.114 Y130.98 E48.12414
G1 X61.668 Y130.598 E48.19461
G1 X61.147 Y130.095 E48.28152
G1 X61.009 Y129.95 E48.30554
G1 X60.624 Y129.512 E48.37551
G1 X60.43 Y129.273 E48.41245
G1 X60.055 Y128.769 E48.48784
G1 X59.883 Y128.516 E48.52455
G1 X59.587 Y128.043 E48.59151
G1 X59.456 Y127.815 E48.62306
G1 X59.132 Y127.184 E48.70818
G1 X58.986 Y126.862 E48.75061
G1 X58.773 Y126.339 E48.81837
G1 X58.683 Y126.092 E48.84992
G1 X58.473 Y125.418 E48.93463
G1 X58.385 Y125.079 E48.97666
G1 X58.245 Y124.413 E49.05833
G1 X58.195 Y124.107 E49.09554
G1 X58.117 Y123.446 E49.17541
G1 X58.095 Y123.141 E49.2121
G1 X58.076 Y122.61 E49.27586
G1 X58.074 Y100.455 E51.93446
G1 X58.105 Y99.714 E52.02346
G1 X58.168 Y99.087 E52.09908
G1 X58.212 Y98.783 E52.13594
G1 X58.33 Y98.162 E52.21179
G1 X58.4 Y97.862 E52.24876
G1 X58.583 Y97.21 E52.33002
G1 X58.68 Y96.918 E52.36695
G1 X58.903 Y96.333 E52.44207
G1 X59.024 Y96.051 E52.4789
G1 X59.309 Y95.459 E52.55774
G1 X59.455 Y95.188 E52.59468
G1 X59.776 Y94.649 E52.66996
G1 X59.944 Y94.392 E52.70681
G1 X60.329 Y93.856 E52.786
G1 X60.52 Y93.614 E52.82299
G1 X60.902 Y93.168 E52.89346
G1 X61.08 Y92.976 E52.92488
G1 X61.543 Y92.519 E53.00295
G1 X61.805 Y92.282 E53.04534
G1 X62.337 Y91.844 E53.12803
G1 X62.583 Y91.66 E53.1649
G0 F3600 X62.822 Y91.981
G1 F1800 X63.36 Y91.616 E53.24291
G1 X63.623 Y91.455 E53.27992
G1 X64.111 Y91.182 E53.34702
G1 X64.385 Y91.043 E53.38389
G1 X64.952 Y90.787 E53.45854
G1 X65.237 Y90.673 E53.49537
G1 X65.809 Y90.472 E53.56813
G1 X66.103 Y90.383 E53.60499
G1 X66.702 Y90.231 E53.67915
G1 X67.004 Y90.168 E53.71617
G1 X67.612 Y90.068 E53.79011
G1 X68.377 Y89.993 E53.88235
G1 X68.892 Y89.976 E53.94418
G1 X91.044 Y89.974 E56.60242
G1 X91.718 Y90 E56.68336
G1 X92.349 Y90.063 E56.75946
G1 X92.645 Y90.106 E56.79535
G1 X93.199 Y90.209 E56.86297
G1 X93.492 Y90.276 E56.89904
G1 X94.068 Y90.434 E56.97071
G1 X94.352 Y90.525 E57.0065
G1 X94.908 Y90.729 E57.07757
G1 X95.184 Y90.844 E57.11345
G1 X95.706 Y91.087 E57.18254
G1 X95.752 Y91.111 E57.18877
G1 X95.885 Y91.043 E57.20669
G1 X96.452 Y90.787 E57.28135
G1 X96.737 Y90.673 E57.31818
G1 X97.309 Y90.472 E57.39094
G1 X97.603 Y90.383 E57.4278
G1 X98.202 Y90.231 E57.50196
G1 X98.504 Y90.168 E57.53898
G1 X99.112 Y90.068 E57.61292
G1 X99.877 Y89.993 E57.70516
G1 X100.392 Y89.976 E57.76699
G1 X122.544 Y89.974 E60.42523
G1 X123.218 Y90 E60.50617
G1 X123.849 Y90.063 E60.58227
G1 X124.145 Y90.106 E60.61816
G1 X124.699 Y90.209 E60.68578
G1 X124.992 Y90.276 E60.72185
G1 X125.568 Y90.434 E60.79352
G1 X125.852 Y90.525 E60.82931
G1 X126.408 Y90.729 E60.90037
G1 X126.684 Y90.844 E60.93625
G1 X127.206 Y91.087 E61.00535
G1 X127.473 Y91.225 E61.04142
G1 X128.005 Y91.531 E61.11506
G1 X128.256 Y91.69 E61.15072
G1 X128.747 Y92.031 E61.22245
G1 X128.985 Y92.212 E61.25833
G1 X129.373 Y92.53 E61.31853
G1 X129.565 Y92.699 E61.34923
G1 X130.05 Y93.169 E61.43027
G1 X130.285 Y93.42 E61.47153
G1 X130.641 Y93.831 E61.53678
G1 X130.801 Y94.031 E61.56752
G1 X131.153 Y94.512 E61.63904
G1 X131.343 Y94.796 E61.68005
G1 X131.654 Y95.307 E61.75183
G1 X131.777 Y95.53 E61.78239
G1 X132.045 Y96.068 E61.85452
G1 X132.185 Y96.383 E61.89588
G1 X132.429 Y97.012 E61.97684
G1 X132.664 Y97.775 E62.07265
G1 X132.738 Y98.064 E62.10845
G1 X132.874 Y98.725 E62.18943
G1 X132.92 Y99.021 E62.22537
G1 X132.986 Y99.604 E62.29578
G1 X133.024 Y100.393 E62.39057
G1 X133.026 Y122.545 E65.04881
G1 X132.996 Y123.263 E65.13505
G1 X132.936 Y123.856 E65.20657
G1 X132.892 Y124.16 E65.24343
G1 X132.781 Y124.748 E65.31524
G1 X132.711 Y125.048 E65.3522
G1 X132.537 Y125.664 E65.42901
G1 X132.44 Y125.956 E65.46594
G1 X132.23 Y126.509 E65.53692
G1 X132.109 Y126.791 E65.57374
G1 X131.839 Y127.351 E65.64835
G1 X131.693 Y127.622 E65.68529
G1 X131.389 Y128.132 E65.75653
G1 X131.221 Y128.389 E65.79338
G1 X130.857 Y128.896 E65.86828
G1 X130.666 Y129.138 E65.90527
G1 X130.304 Y129.56 E65.97199
G1 X130.126 Y129.752 E66.00341
G1 X129.689 Y130.184 E66.07715
G1 X129.427 Y130.421 E66.11954
G1 X128.924 Y130.835 E66.19772
G1 X128.678 Y131.019 E66.23458
G1 X128.14 Y131.384 E66.3126
G1 X127.877 Y131.545 E66.3496
G1 X127.389 Y131.818 E66.4167
G1 X127.115 Y131.957 E66.45357
G1 X126.548 Y132.213 E66.52822
G1 X126.263 Y132.327 E66.56506
G1 X125.691 Y132.528 E66.63781
G1 X125.397 Y132.617 E66.67467
G1 X124.798 Y132.769 E66.74883
G1 X124.496 Y132.832 E66.78585
G1 X123.888 Y132.932 E66.85979
G1 X123.123 Y133.007 E66.95203
G1 X122.608 Y133.024 E67.01387
G1 X100.455 Y133.026 E69.67223
G1 X99.737 Y132.996 E69.75846
G1 X99.144 Y132.936 E69.82998
G1 X98.84 Y132.892 E69.86684
G1 X98.252 Y132.781 E69.93865
G1 X97.952 Y132.711 E69.97562
G1 X97.336 Y132.537 E70.05243
G1 X97.044 Y132.44 E70.08935
G1 X96.491 Y132.23 E70.16034
G1 X96.209 Y132.109 E70.19716
G1 X95.751 Y131.888 E70.25818
G1 X95.615 Y131.957 E70.27648
G1 X95.048 Y132.213 E70.35114
G1 X94.763 Y132.327 E70.38797
G1 X94.191 Y132.528 E70.46073
G1 X93.897 Y132.617 E70.49759
G1 X93.298 Y132.769 E70.57175
G1 X92.996 Y132.832 E70.60877
G1 X92.388 Y132.932 E70.68271
G1 X91.623 Y133.007 E70.77495
G1 X91.108 Y133.024 E70.83678
G1 X68.955 Y133.026 E73.49514
G1 X68.237 Y132.996 E73.58138
G1 X67.644 Y132.936 E73.6529
G1 X67.34 Y132.892 E73.68976
G1 X66.752 Y132.781 E73.76157
G1 X66.452 Y132.711 E73.79853
G1 X65.836 Y132.537 E73.87534
G1 X65.544 Y132.44 E73.91227
G1 X64.991 Y132.23 E73.98325
G1 X64.709 Y132.109 E74.02007
G1 X64.149 Y131.839 E74.09468
G1 X63.878 Y131.693 E74.13162
G1 X63.368 Y131.389 E74.20286
G1 X63.111 Y131.221 E74.23971
G1 X62.604 Y130.857 E74.31461
G1 X62.362 Y130.666 E74.3516
G1 X61.94 Y130.304 E74.41832
G1 X61.436 Y129.819 E74.50225
G1 X61.298 Y129.674 E74.52628
G1 X60.934 Y129.26 E74.59243
G1 X60.74 Y129.021 E74.62937
G1 X60.386 Y128.545 E74.70055
G1 X60.214 Y128.292 E74.73726
G1 X59.934 Y127.843 E74.80076
G1 X59.803 Y127.615 E74.83232
G1 X59.497 Y127.019 E74.91271
G1 X59.351 Y126.697 E74.95514
G1 X59.149 Y126.202 E75.01929
G1 X59.059 Y125.955 E75.05084
G1 X58.861 Y125.318 E75.13089
G1 X58.773 Y124.979 E75.17291
G1 X58.64 Y124.349 E75.25018
G1 X58.59 Y124.043 E75.28739
G1 X58.516 Y123.418 E75.36291
G1 X58.494 Y123.113 E75.39961
G1 X58.476 Y122.61 E75.46001
G1 X58.474 Y100.455 E78.11861
G1 X58.504 Y99.737 E78.20484
G1 X58.564 Y99.144 E78.27636
