;FLAVOR:UltiGCode
;TIME:1453
;MATERIAL:1583
;MATERIAL2:0
;NOZZLE_DIAMETER:0.4
;MINX:94.702
;MINY:94.702
;MINZ:0.3
;MAXX:128.298
;MAXY:128.298
;MAXZ:19
;Generated with Cura_SteamEngine 4.12.1
M82 ;absolute extrusion mode
G0 F3000 Y50 ;avoid prime blob
G92 E0
G92 E0
G10
;LAYER_COUNT:188
;LAYER:0
M107
G0 F3600 X99.752 Y99.492 Z0.3
;TYPE:SKIRT
G11
G1 F1800 X100.271 Y99.006 E0.08532
G1 X100.818 Y98.535 E0.17194
G1 X101.423 Y98.059 E0.26432
G1 X101.984 Y97.656 E0.34721
G1 X102.637 Y97.228 E0.4409
G1 X103.236 Y96.874 E0.5244
G1 X103.894 Y96.521 E0.614
G1 X104.571 Y96.197 E0.70407
G1 X105.223 Y95.918 E0.78917
G1 X105.926 Y95.653 E0.87932
G1 X106.605 Y95.431 E0.96505
G1 X107.317 Y95.231 E1.05379
G1 X108.025 Y95.065 E1.14106
G1 X108.748 Y94.928 E1.22936
G1 X109.471 Y94.824 E1.31701
G1 X110.22 Y94.75 E1.40733
G1 X110.929 Y94.711 E1.49254
G1 X111.679 Y94.702 E1.58255
G1 X112.392 Y94.725 E1.66815
G1 X113.134 Y94.781 E1.75744
G1 X113.87 Y94.869 E1.84639
G1 X114.569 Y94.984 E1.9314
G1 X115.33 Y95.144 E2.02472
G1 X116.002 Y95.316 E2.10796
G1 X116.714 Y95.531 E2.19721
G1 X117.392 Y95.769 E2.28343
G1 X118.086 Y96.046 E2.3731
G1 X118.752 Y96.347 E2.46081
G1 X119.404 Y96.676 E2.54844
G1 X120.043 Y97.035 E2.6364
G1 X120.681 Y97.431 E2.7265
G1 X121.271 Y97.835 E2.81231
G1 X121.854 Y98.271 E2.89967
G1 X122.442 Y98.753 E2.99091
G1 X122.965 Y99.222 E3.07521
G1 X123.507 Y99.751 E3.16609
G1 X124.006 Y100.285 E3.2538
G1 X124.462 Y100.816 E3.33779
G1 X124.941 Y101.424 E3.43067
G1 X125.34 Y101.98 E3.51279
G1 X125.767 Y102.63 E3.60612
G1 X126.126 Y103.236 E3.69064
G1 X126.479 Y103.894 E3.78024
G1 X126.803 Y104.571 E3.87031
G1 X127.082 Y105.223 E3.95541
G1 X127.345 Y105.92 E4.04481
G1 X127.571 Y106.609 E4.13182
G1 X127.769 Y107.317 E4.22004
G1 X127.935 Y108.025 E4.3073
G1 X128.071 Y108.742 E4.39488
G1 X128.176 Y109.473 E4.4835
G1 X128.25 Y110.217 E4.57322
G1 X128.289 Y110.928 E4.65867
G1 X128.298 Y111.665 E4.74711
G1 X128.276 Y112.374 E4.83224
G1 X128.219 Y113.139 E4.92429
G1 X128.132 Y113.863 E5.01179
G1 X128.016 Y114.57 E5.09777
G1 X127.859 Y115.322 E5.18995
G1 X127.681 Y116.014 E5.2757
G1 X127.471 Y116.708 E5.36271
G1 X127.233 Y117.389 E5.44927
G1 X126.954 Y118.087 E5.53948
G1 X126.645 Y118.768 E5.62922
G1 X126.324 Y119.403 E5.7146
G1 X125.965 Y120.042 E5.80255
G1 X125.572 Y120.675 E5.89196
G1 X125.159 Y121.278 E5.97967
G1 X124.727 Y121.855 E6.06616
G1 X124.255 Y122.431 E6.15552
G1 X123.778 Y122.965 E6.24145
G1 X123.248 Y123.508 E6.3325
G1 X122.729 Y123.994 E6.41782
G1 X122.182 Y124.465 E6.50444
G1 X121.577 Y124.941 E6.59682
G1 X121.016 Y125.344 E6.67971
G1 X120.363 Y125.772 E6.7734
G1 X119.764 Y126.126 E6.8569
G1 X119.106 Y126.479 E6.9465
G1 X118.429 Y126.803 E7.03657
G1 X117.777 Y127.082 E7.12167
G1 X117.074 Y127.347 E7.21182
G1 X116.395 Y127.569 E7.29755
G1 X115.683 Y127.769 E7.38629
G1 X114.975 Y127.935 E7.47356
G1 X114.252 Y128.072 E7.56186
G1 X113.529 Y128.176 E7.64952
G1 X112.78 Y128.25 E7.73983
G1 X112.071 Y128.289 E7.82504
G1 X111.321 Y128.298 E7.91505
G1 X110.612 Y128.275 E8.00017
G1 X109.861 Y128.219 E8.09054
G1 X109.137 Y128.132 E8.17805
G1 X108.43 Y128.016 E8.26402
G1 X107.678 Y127.859 E8.35621
G1 X106.986 Y127.681 E8.44195
G1 X106.292 Y127.471 E8.52896
G1 X105.607 Y127.231 E8.61606
G1 X104.913 Y126.954 E8.70573
G1 X104.232 Y126.645 E8.79547
G1 X103.597 Y126.324 E8.88085
G1 X102.952 Y125.961 E8.96967
G1 X102.328 Y125.574 E9.05778
G1 X101.722 Y125.159 E9.14592
G1 X101.145 Y124.727 E9.23241
G1 X100.569 Y124.255 E9.32177
G1 X100.035 Y123.778 E9.4077
G1 X99.493 Y123.249 E9.49858
G1 X99.004 Y122.726 E9.5845
G1 X98.537 Y122.184 E9.67035
G1 X98.055 Y121.573 E9.76374
G1 X97.656 Y121.016 E9.84596
G1 X97.228 Y120.363 E9.93965
G1 X96.874 Y119.764 E10.02315
G1 X96.521 Y119.106 E10.11275
G1 X96.197 Y118.431 E10.2026
G1 X95.916 Y117.771 E10.28868
G1 X95.653 Y117.074 E10.37807
G1 X95.431 Y116.395 E10.4638
G1 X95.231 Y115.683 E10.55255
G1 X95.065 Y114.975 E10.63981
G1 X94.928 Y114.252 E10.72811
G1 X94.824 Y113.529 E10.81577
G1 X94.75 Y112.783 E10.90573
G1 X94.711 Y112.072 E10.99117
G1 X94.702 Y111.321 E11.0813
G1 X94.725 Y110.612 E11.16643
G1 X94.781 Y109.861 E11.2568
G1 X94.868 Y109.137 E11.3443
G1 X94.984 Y108.43 E11.43028
G1 X95.141 Y107.678 E11.52246
G1 X95.319 Y106.986 E11.6082
G1 X95.529 Y106.292 E11.69521
G1 X95.767 Y105.611 E11.78178
G1 X96.046 Y104.913 E11.87198
G1 X96.355 Y104.232 E11.96172
G1 X96.676 Y103.597 E12.04711
G1 X97.035 Y102.958 E12.13506
G1 X97.428 Y102.325 E12.22447
G1 X97.841 Y101.722 E12.31217
G1 X98.273 Y101.145 E12.39867
G1 X98.745 Y100.569 E12.48803
G1 X99.222 Y100.035 E12.57395
G1 X99.752 Y99.492 E12.66501
G0 F3600 X100.028 Y99.782
G1 F1800 X100.535 Y99.306 E12.74846
G1 X101.069 Y98.846 E12.83304
G1 X101.659 Y98.382 E12.92311
G1 X102.207 Y97.988 E13.0041
G1 X102.844 Y97.571 E13.09546
G1 X103.429 Y97.225 E13.17702
G1 X104.071 Y96.88 E13.26448
G1 X104.731 Y96.563 E13.35234
G1 X105.368 Y96.291 E13.43546
G1 X106.054 Y96.032 E13.52345
G1 X106.717 Y95.815 E13.60716
G1 X107.412 Y95.619 E13.69382
G1 X108.103 Y95.457 E13.77899
G1 X108.809 Y95.323 E13.86522
G1 X109.515 Y95.222 E13.9508
G1 X110.245 Y95.149 E14.03884
G1 X110.938 Y95.111 E14.12212
G1 X111.669 Y95.102 E14.20985
G1 X112.366 Y95.124 E14.29353
G1 X113.09 Y95.178 E14.38065
G1 X113.809 Y95.264 E14.46755
G1 X114.492 Y95.376 E14.5506
G1 X115.234 Y95.532 E14.64159
G1 X115.89 Y95.701 E14.72288
G1 X116.586 Y95.91 E14.81008
G1 X117.247 Y96.142 E14.89415
G1 X117.925 Y96.412 E14.98172
G1 X118.575 Y96.706 E15.06733
G1 X119.211 Y97.027 E15.15282
G1 X119.836 Y97.377 E15.23878
G1 X120.458 Y97.763 E15.32662
G1 X121.035 Y98.158 E15.41053
G1 X121.604 Y98.583 E15.49576
G1 X122.178 Y99.053 E15.58478
G1 X122.689 Y99.511 E15.66713
G1 X123.218 Y100.027 E15.75581
G1 X123.705 Y100.548 E15.84139
G1 X124.151 Y101.067 E15.9235
G1 X124.618 Y101.66 E16.01408
G1 X125.009 Y102.204 E16.09447
G1 X125.425 Y102.837 E16.18537
G1 X125.775 Y103.429 E16.26789
G1 X126.12 Y104.071 E16.35535
G1 X126.437 Y104.731 E16.44322
G1 X126.709 Y105.368 E16.52633
G1 X126.966 Y106.048 E16.61357
G1 X127.187 Y106.721 E16.69857
G1 X127.381 Y107.412 E16.78469
G1 X127.543 Y108.103 E16.86986
G1 X127.676 Y108.803 E16.95537
G1 X127.779 Y109.517 E17.04193
G1 X127.851 Y110.243 E17.12948
G1 X127.889 Y110.937 E17.21288
G1 X127.898 Y111.657 E17.29929
G1 X127.877 Y112.349 E17.38237
G1 X127.821 Y113.095 E17.47214
G1 X127.737 Y113.802 E17.55758
G1 X127.624 Y114.493 E17.6416
G1 X127.47 Y115.226 E17.73148
G1 X127.297 Y115.902 E17.81521
G1 X127.092 Y116.58 E17.90021
G1 X126.86 Y117.245 E17.98473
G1 X126.588 Y117.926 E18.07273
G1 X126.287 Y118.591 E18.16032
G1 X125.973 Y119.21 E18.24361
G1 X125.623 Y119.835 E18.32957
G1 X125.239 Y120.453 E18.41688
G1 X124.837 Y121.041 E18.50235
G1 X124.415 Y121.605 E18.58688
G1 X123.955 Y122.167 E18.67403
G1 X123.489 Y122.689 E18.758
G1 X122.972 Y123.218 E18.84676
G1 X122.465 Y123.694 E18.93022
G1 X121.931 Y124.154 E19.01479
G1 X121.341 Y124.618 E19.10486
G1 X120.793 Y125.012 E19.18586
G1 X120.156 Y125.429 E19.27722
G1 X119.571 Y125.775 E19.35878
G1 X118.929 Y126.12 E19.44624
G1 X118.269 Y126.437 E19.5341
G1 X117.632 Y126.709 E19.61722
G1 X116.946 Y126.968 E19.70521
G1 X116.283 Y127.185 E19.78892
G1 X115.588 Y127.381 E19.87557
G1 X114.897 Y127.543 E19.96074
G1 X114.191 Y127.677 E20.04698
G1 X113.485 Y127.778 E20.13256
G1 X112.755 Y127.851 E20.22059
G1 X112.062 Y127.889 E20.30388
G1 X111.33 Y127.898 E20.39173
G1 X110.637 Y127.876 E20.47493
G1 X109.905 Y127.821 E20.56302
G1 X109.198 Y127.737 E20.64845
G1 X108.507 Y127.624 E20.73247
G1 X107.774 Y127.47 E20.82235
G1 X107.098 Y127.297 E20.90609
G1 X106.42 Y127.092 E20.99109
G1 X105.752 Y126.858 E21.07602
G1 X105.074 Y126.588 E21.1636
G1 X104.409 Y126.287 E21.25119
G1 X103.79 Y125.973 E21.33448
G1 X103.16 Y125.619 E21.4212
G1 X102.551 Y125.241 E21.50721
G1 X101.959 Y124.837 E21.59322
G1 X101.395 Y124.415 E21.67774
G1 X100.833 Y123.955 E21.76489
G1 X100.311 Y123.489 E21.84886
G1 X99.782 Y122.973 E21.93754
G1 X99.304 Y122.462 E22.02151
G1 X98.848 Y121.933 E22.10532
G1 X98.378 Y121.337 E22.1964
G1 X97.988 Y120.793 E22.27672
G1 X97.571 Y120.156 E22.36809
G1 X97.225 Y119.571 E22.44964
G1 X96.88 Y118.929 E22.5371
G1 X96.564 Y118.271 E22.6247
G1 X96.289 Y117.626 E22.70884
G1 X96.032 Y116.946 E22.79607
G1 X95.815 Y116.283 E22.87979
G1 X95.619 Y115.588 E22.96644
G1 X95.457 Y114.897 E23.05161
G1 X95.323 Y114.191 E23.13784
G1 X95.222 Y113.485 E23.22342
G1 X95.149 Y112.757 E23.31122
G1 X95.111 Y112.063 E23.39462
G1 X95.102 Y111.33 E23.48259
G1 X95.124 Y110.637 E23.56579
G1 X95.179 Y109.905 E23.65388
G1 X95.263 Y109.198 E23.73932
G1 X95.376 Y108.507 E23.82334
G1 X95.53 Y107.774 E23.91322
G1 X95.703 Y107.098 E23.99695
G1 X95.908 Y106.42 E24.08195
G1 X96.14 Y105.755 E24.16647
G1 X96.412 Y105.074 E24.25447
G1 X96.713 Y104.409 E24.34206
G1 X97.027 Y103.79 E24.42535
G1 X97.377 Y103.165 E24.51131
G1 X97.761 Y102.547 E24.59862
G1 X98.163 Y101.959 E24.68409
G1 X98.585 Y101.395 E24.76862
G1 X99.045 Y100.833 E24.85577
G1 X99.511 Y100.311 E24.93974
G1 X100.028 Y99.782 E25.0285
G0 F3600 X100.304 Y100.071
G1 F1800 X100.799 Y99.607 E25.10992
G1 X101.32 Y99.157 E25.19253
G1 X101.894 Y98.705 E25.2802
G1 X102.431 Y98.32 E25.35949
G1 X103.05 Y97.913 E25.44839
G1 X103.622 Y97.575 E25.52812
G1 X104.248 Y97.238 E25.61343
G1 X104.891 Y96.929 E25.69904
G1 X105.514 Y96.664 E25.78028
G1 X106.182 Y96.411 E25.866
G1 X106.83 Y96.199 E25.94782
G1 X107.507 Y96.008 E26.03223
G1 X108.182 Y95.849 E26.11544
G1 X108.87 Y95.719 E26.19946
G1 X109.559 Y95.619 E26.28301
G1 X110.27 Y95.548 E26.36875
G1 X110.947 Y95.511 E26.45012
G1 X111.66 Y95.502 E26.53568
G1 X112.341 Y95.523 E26.61744
G1 X113.046 Y95.576 E26.70228
G1 X113.747 Y95.66 E26.787
G1 X114.414 Y95.769 E26.8681
G1 X115.137 Y95.92 E26.95674
G1 X115.779 Y96.085 E27.03628
G1 X116.457 Y96.289 E27.12124
G1 X117.103 Y96.515 E27.20337
G1 X117.764 Y96.778 E27.28874
G1 X118.398 Y97.064 E27.3722
G1 X119.019 Y97.378 E27.4557
G1 X119.629 Y97.719 E27.53957
G1 X120.235 Y98.096 E27.62521
G1 X120.798 Y98.48 E27.70699
G1 X121.354 Y98.896 E27.79032
G1 X121.913 Y99.354 E27.87704
G1 X122.412 Y99.801 E27.95743
G1 X122.928 Y100.304 E28.0439
G1 X123.404 Y100.812 E28.12744
G1 X123.84 Y101.318 E28.20759
G1 X124.295 Y101.895 E28.29577
G1 X124.677 Y102.427 E28.37436
G1 X125.082 Y103.044 E28.46293
G1 X125.425 Y103.622 E28.54358
G1 X125.762 Y104.248 E28.62889
G1 X126.071 Y104.891 E28.7145
G1 X126.336 Y105.514 E28.79574
G1 X126.587 Y106.176 E28.8807
G1 X126.803 Y106.833 E28.96369
G1 X126.992 Y107.507 E29.04769
G1 X127.151 Y108.182 E29.13091
G1 X127.28 Y108.865 E29.21432
G1 X127.381 Y109.561 E29.29871
G1 X127.452 Y110.268 E29.38398
G1 X127.489 Y110.946 E29.46546
G1 X127.498 Y111.649 E29.54983
G1 X127.478 Y112.323 E29.63074
G1 X127.424 Y113.051 E29.71834
G1 X127.341 Y113.741 E29.80174
G1 X127.231 Y114.415 E29.88369
G1 X127.082 Y115.13 E29.97133
G1 X126.913 Y115.79 E30.05309
G1 X126.713 Y116.452 E30.13608
G1 X126.487 Y117.1 E30.21843
G1 X126.222 Y117.765 E30.30433
G1 X125.929 Y118.413 E30.38967
G1 X125.622 Y119.018 E30.47108
G1 X125.281 Y119.628 E30.55495
G1 X124.907 Y120.23 E30.63999
G1 X124.515 Y120.805 E30.7235
G1 X124.103 Y121.355 E30.80596
G1 X123.654 Y121.903 E30.89098
G1 X123.199 Y122.412 E30.97291
G1 X122.696 Y122.929 E31.05946
G1 X122.201 Y123.393 E31.14088
G1 X121.68 Y123.843 E31.22349
G1 X121.106 Y124.295 E31.31116
G1 X120.569 Y124.68 E31.39045
G1 X119.95 Y125.087 E31.47935
G1 X119.378 Y125.425 E31.55908
G1 X118.752 Y125.762 E31.64439
G1 X118.109 Y126.071 E31.73
G1 X117.486 Y126.336 E31.81124
G1 X116.818 Y126.589 E31.89696
G1 X116.17 Y126.801 E31.97878
G1 X115.493 Y126.992 E32.06319
G1 X114.818 Y127.151 E32.1464
G1 X114.13 Y127.281 E32.23043
G1 X113.441 Y127.381 E32.31397
G1 X112.73 Y127.452 E32.39972
G1 X112.053 Y127.489 E32.48108
G1 X111.339 Y127.498 E32.56676
G1 X110.662 Y127.477 E32.64804
G1 X109.949 Y127.424 E32.73384
G1 X109.259 Y127.341 E32.81724
G1 X108.585 Y127.231 E32.89919
G1 X107.87 Y127.082 E32.98683
G1 X107.21 Y126.913 E33.06858
G1 X106.548 Y126.713 E33.15157
G1 X105.896 Y126.485 E33.23446
G1 X105.235 Y126.222 E33.31982
G1 X104.587 Y125.929 E33.40516
G1 X103.982 Y125.622 E33.48658
G1 X103.367 Y125.278 E33.57114
G1 X102.773 Y124.909 E33.65505
G1 X102.195 Y124.515 E33.73899
G1 X101.645 Y124.103 E33.82146
G1 X101.097 Y123.654 E33.90647
G1 X100.588 Y123.199 E33.9884
G1 X100.072 Y122.696 E34.07487
G1 X99.605 Y122.198 E34.15679
G1 X99.159 Y121.682 E34.23864
G1 X98.702 Y121.102 E34.32725
G1 X98.32 Y120.569 E34.40594
G1 X97.913 Y119.95 E34.49484
G1 X97.575 Y119.378 E34.57456
G1 X97.238 Y118.752 E34.65988
G1 X96.93 Y118.111 E34.74522
G1 X96.661 Y117.481 E34.82742
G1 X96.411 Y116.818 E34.91245
G1 X96.199 Y116.17 E34.99426
G1 X96.008 Y115.493 E35.07868
G1 X95.849 Y114.818 E35.16189
G1 X95.719 Y114.13 E35.24591
G1 X95.619 Y113.441 E35.32946
G1 X95.548 Y112.732 E35.41496
G1 X95.511 Y112.054 E35.49645
G1 X95.502 Y111.339 E35.58225
G1 X95.523 Y110.662 E35.66353
G1 X95.576 Y109.949 E35.74933
G1 X95.659 Y109.259 E35.83272
G1 X95.769 Y108.585 E35.91467
G1 X95.918 Y107.87 E36.00232
G1 X96.087 Y107.21 E36.08407
G1 X96.287 Y106.548 E36.16706
G1 X96.513 Y105.9 E36.24941
G1 X96.778 Y105.235 E36.33532
G1 X97.071 Y104.587 E36.42066
G1 X97.378 Y103.982 E36.50207
G1 X97.719 Y103.372 E36.58593
G1 X98.093 Y102.77 E36.67097
G1 X98.485 Y102.195 E36.75448
G1 X98.897 Y101.645 E36.83695
G1 X99.346 Y101.097 E36.92196
G1 X99.801 Y100.588 E37.00389
G1 X100.304 Y100.071 E37.09045
G0 F3600 X100.58 Y100.361
G1 F1800 X101.063 Y99.907 E37.16999
G1 X101.572 Y99.469 E37.25057
G1 X102.13 Y99.028 E37.33592
G1 X102.654 Y98.652 E37.41331
G1 X103.257 Y98.256 E37.49988
G1 X103.815 Y97.925 E37.57774
G1 X104.425 Y97.597 E37.66085
G1 X105.051 Y97.296 E37.7442
G1 X105.659 Y97.036 E37.82355
G1 X106.31 Y96.79 E37.90706
G1 X106.942 Y96.583 E37.98687
G1 X107.602 Y96.396 E38.06918
G1 X108.26 Y96.242 E38.15028
G1 X108.931 Y96.114 E38.23225
G1 X109.603 Y96.017 E38.31373
G1 X110.296 Y95.947 E38.39731
G1 X110.957 Y95.911 E38.47675
G1 X111.651 Y95.902 E38.56003
G1 X112.315 Y95.923 E38.63975
G1 X113.003 Y95.973 E38.72253
G1 X113.686 Y96.055 E38.80508
G1 X114.337 Y96.161 E38.88423
G1 X115.041 Y96.308 E38.97053
G1 X115.668 Y96.469 E39.04821
G1 X116.328 Y96.668 E39.13093
G1 X116.959 Y96.888 E39.21112
G1 X117.603 Y97.144 E39.29429
G1 X118.221 Y97.423 E39.37565
G1 X118.827 Y97.729 E39.45712
G1 X119.421 Y98.061 E39.53878
G1 X120.013 Y98.428 E39.62236
G1 X120.562 Y98.803 E39.70214
G1 X121.104 Y99.208 E39.78333
G1 X121.649 Y99.654 E39.86784
G1 X122.136 Y100.09 E39.94628
G1 X122.639 Y100.58 E40.03055
G1 X123.103 Y101.075 E40.11196
G1 X123.529 Y101.57 E40.19033
G1 X123.972 Y102.131 E40.27611
G1 X124.345 Y102.651 E40.3529
G1 X124.74 Y103.251 E40.4391
G1 X125.075 Y103.815 E40.51782
G1 X125.403 Y104.425 E40.60093
G1 X125.704 Y105.051 E40.68429
G1 X125.964 Y105.659 E40.76364
G1 X126.208 Y106.305 E40.8465
G1 X126.419 Y106.945 E40.92737
G1 X126.604 Y107.602 E41.00928
G1 X126.758 Y108.26 E41.09037
G1 X126.885 Y108.926 E41.17173
G1 X126.984 Y109.604 E41.25395
G1 X127.052 Y110.294 E41.33715
G1 X127.089 Y110.955 E41.4166
G1 X127.099 Y111.64 E41.49881
G1 X127.079 Y112.298 E41.5778
G1 X127.026 Y113.007 E41.66312
G1 X126.946 Y113.68 E41.74445
G1 X126.839 Y114.338 E41.82445
G1 X126.694 Y115.034 E41.90976
G1 X126.529 Y115.678 E41.98954
G1 X126.334 Y116.323 E42.0704
G1 X126.114 Y116.956 E42.15081
G1 X125.856 Y117.603 E42.2344
G1 X125.57 Y118.235 E42.31764
G1 X125.271 Y118.826 E42.39712
G1 X124.939 Y119.42 E42.47878
G1 X124.575 Y120.008 E42.56177
G1 X124.192 Y120.568 E42.64318
G1 X123.79 Y121.105 E42.72367
G1 X123.354 Y121.639 E42.8064
G1 X122.91 Y122.136 E42.88637
G1 X122.42 Y122.639 E42.97064
G1 X121.937 Y123.093 E43.05019
G1 X121.428 Y123.531 E43.13077
G1 X120.87 Y123.972 E43.21611
G1 X120.346 Y124.348 E43.29351
G1 X119.743 Y124.744 E43.38008
G1 X119.185 Y125.075 E43.45793
G1 X118.575 Y125.403 E43.54104
G1 X117.949 Y125.704 E43.62439
G1 X117.341 Y125.964 E43.70374
G1 X116.69 Y126.21 E43.78726
G1 X116.058 Y126.417 E43.86706
G1 X115.398 Y126.604 E43.94938
G1 X114.74 Y126.758 E44.03047
G1 X114.069 Y126.886 E44.11244
