;FLAVOR:UltiGCode
;TIME:14276
;MATERIAL:19947
;MATERIAL2:0
;NOZZLE_DIAMETER:0.4
;MINX:59.074
;MINY:77.074
;MINZ:0.36
;MAXX:163.925
;MAXY:145.925
;MAXZ:22.86
;Generated with Cura_SteamEngine 4.12.1
M82 ;absolute extrusion mode
G0 F3000 Y50 ;avoid prime blob
G92 E0
G92 E0
G10
;LAYER_COUNT:218
;LAYER:-9
M107
G0 F7200 X64.859 Y80.686 Z0.36
;TYPE:SUPPORT-INTERFACE
G11
G1 F1350 X65.571 Y80.141 E0.25823
G1 X65.751 Y80.015 E0.32151
G1 X66.9 Y79.287 E0.71325
G1 X67.049 Y79.203 E0.76252
G1 X67.882 Y78.773 E1.0325
G1 X68.015 Y78.71 E1.07488
G1 X68.731 Y78.398 E1.29982
G1 X68.857 Y78.348 E1.33886
G1 X69.758 Y78.025 E1.61452
G1 X69.932 Y77.97 E1.66707
G1 X70.94 Y77.692 E1.96821
G1 X71.645 Y77.542 E2.1758
G1 X72.5 Y77.405 E2.42518
G1 X73.029 Y77.349 E2.57838
G1 X73.531 Y77.307 E2.72346
G1 X73.68 Y77.299 E2.76644
G1 X74.563 Y77.275 E3.02084
G1 X148.44 Y77.275 E24.29741
G1 X148.592 Y77.279 E24.3412
G1 X149.829 Y77.333 E24.6978
G1 X149.932 Y77.345 E24.72766
G1 X151.387 Y77.548 E25.15076
G1 X151.808 Y77.636 E25.27463
G1 X152.735 Y77.87 E25.54998
G1 X152.84 Y77.899 E25.58135
G1 X153.331 Y78.052 E25.72947
G1 X153.437 Y78.089 E25.7618
G1 X154.327 Y78.422 E26.03548
G1 X154.461 Y78.478 E26.0773
G1 X155.575 Y79.004 E26.4321
G1 X155.941 Y79.198 E26.5514
G1 X156.753 Y79.682 E26.82365
G1 X156.9 Y79.777 E26.87406
G1 X157.782 Y80.399 E27.18488
G1 X158.541 Y81.023 E27.46787
G1 X158.691 Y81.156 E27.5256
G1 X159.53 Y81.967 E27.86167
G1 X159.565 Y82.003 E27.87613
G1 X160.242 Y82.768 E28.17033
G1 X160.314 Y82.859 E28.20375
G1 X160.859 Y83.571 E28.46198
G1 X160.98 Y83.744 E28.52279
G1 X161.707 Y84.89 E28.91364
G1 X161.797 Y85.049 E28.96626
G1 X162.227 Y85.882 E29.23624
G1 X162.289 Y86.013 E29.27798
G1 X162.629 Y86.797 E29.5241
G1 X162.975 Y87.758 E29.81826
G1 X163.028 Y87.922 E29.86789
G1 X163.304 Y88.924 E30.16722
G1 X163.447 Y89.59 E30.3634
G1 X163.457 Y89.641 E30.37836
G1 X163.594 Y90.495 E30.62746
G1 X163.652 Y91.038 E30.78473
G1 X163.701 Y91.68 E30.97017
G1 X163.725 Y92.554 E31.22197
G1 X163.724 Y130.484 E42.14581
G1 X163.721 Y130.591 E42.17664
G1 X163.642 Y132.067 E42.60234
G1 X163.626 Y132.223 E42.6475
G1 X163.469 Y133.277 E42.9544
G1 X163.364 Y133.808 E43.11029
G1 X163.13 Y134.735 E43.38564
G1 X163.105 Y134.827 E43.4131
G1 X162.948 Y135.331 E43.56513
G1 X162.914 Y135.429 E43.59501
G1 X162.582 Y136.316 E43.86777
G1 X162.51 Y136.486 E43.92094
G1 X161.998 Y137.572 E44.26672
G1 X161.801 Y137.943 E44.3877
G1 X161.318 Y138.753 E44.65931
G1 X161.225 Y138.897 E44.70868
G1 X160.62 Y139.757 E45.0115
G1 X160.594 Y139.791 E45.02383
G1 X159.977 Y140.541 E45.30353
G1 X159.844 Y140.691 E45.36127
G1 X159.033 Y141.53 E45.69733
G1 X158.997 Y141.565 E45.71179
G1 X158.266 Y142.211 E45.99275
G1 X158.169 Y142.292 E46.02914
G1 X157.432 Y142.856 E46.29642
G1 X157.249 Y142.985 E46.3609
G1 X156.102 Y143.712 E46.752
G1 X155.958 Y143.793 E46.79959
G1 X155.118 Y144.227 E47.07189
G1 X154.987 Y144.289 E47.11363
G1 X154.269 Y144.602 E47.33921
G1 X154.143 Y144.652 E47.37825
G1 X153.242 Y144.975 E47.65391
G1 X153.068 Y145.03 E47.70646
G1 X152.063 Y145.307 E48.00669
G1 X151.358 Y145.457 E48.21428
G1 X150.512 Y145.593 E48.46106
G1 X149.971 Y145.651 E48.61776
G1 X149.469 Y145.693 E48.76284
G1 X149.32 Y145.701 E48.80581
G1 X148.437 Y145.725 E49.06021
G1 X74.56 Y145.725 E70.33679
G1 X74.408 Y145.721 E70.38058
G1 X73.171 Y145.667 E70.73717
G1 X73.068 Y145.655 E70.76704
G1 X71.609 Y145.451 E71.19132
G1 X71.192 Y145.364 E71.314
G1 X70.266 Y145.13 E71.58907
G1 X70.16 Y145.101 E71.62072
G1 X69.667 Y144.947 E71.76947
G1 X69.563 Y144.911 E71.80116
G1 X68.673 Y144.578 E72.07484
G1 X68.539 Y144.522 E72.11667
G1 X67.425 Y143.996 E72.47146
G1 X67.045 Y143.794 E72.59541
G1 X66.247 Y143.318 E72.86301
G1 X66.1 Y143.223 E72.91342
G1 X65.218 Y142.601 E73.22424
G1 X64.457 Y141.975 E73.50804
G1 X64.305 Y141.84 E73.56659
G1 X63.454 Y141.017 E73.90754
G1 X62.743 Y140.214 E74.21643
G1 X62.141 Y139.429 E74.50133
G1 X62.01 Y139.241 E74.56733
G1 X61.284 Y138.094 E74.95827
G1 X61.201 Y137.948 E75.00664
G1 X60.763 Y137.099 E75.28178
G1 X60.711 Y136.987 E75.31734
G1 X60.368 Y136.196 E75.56564
G1 X60.025 Y135.242 E75.85761
G1 X59.97 Y135.068 E75.91017
G1 X59.716 Y134.15 E76.18449
G1 X59.676 Y133.987 E76.23282
G1 X59.551 Y133.402 E76.40511
G1 X59.404 Y132.492 E76.67058
G1 X59.348 Y131.962 E76.82407
G1 X59.299 Y131.32 E77.00951
G1 X59.275 Y130.456 E77.25844
G1 X59.277 Y92.438 E88.20762
G1 X59.289 Y91.86 E88.37412
G1 X59.368 Y90.825 E88.67307
G1 X59.385 Y90.695 E88.71083
G1 X59.551 Y89.6 E89.02979
G1 X59.641 Y89.173 E89.15547
G1 X59.87 Y88.265 E89.42516
G1 X59.895 Y88.173 E89.45262
G1 X60.052 Y87.669 E89.60465
G1 X60.086 Y87.571 E89.63452
G1 X60.418 Y86.684 E89.90729
G1 X60.49 Y86.514 E89.96046
G1 X61.002 Y85.428 E90.30624
G1 X61.199 Y85.057 E90.42722
G1 X61.682 Y84.247 E90.69882
G1 X61.777 Y84.1 E90.74923
G1 X62.382 Y83.24 E91.05206
G1 X63.023 Y82.459 E91.34304
G1 X63.156 Y82.309 E91.40078
G1 X63.984 Y81.453 E91.74377
G1 X64.733 Y80.788 E92.03223
G1 X64.859 Y80.686 E92.07892
G0 F7200 X65.6 Y80.12
G1 F1350 X65.6 Y142.87 E110.15092
G0 F7200 X67.2 Y143.876
G1 F1350 X67.2 Y79.125 E128.79921
G0 F7200 X68.8 Y78.37
G1 F1350 X68.8 Y144.625 E147.88065
G0 F7200 X70.4 Y145.163
G1 F1350 X70.4 Y77.84 E167.26967
G0 F7200 X72 Y77.485
G1 F1350 X72 Y145.505 E186.85943
G0 F7200 X73.6 Y145.685
G1 F1350 X73.6 Y77.303 E206.55345
G0 F7200 X75.2 Y77.275
G1 F1350 X75.2 Y145.725 E226.26705
G0 F7200 X76.8 Y145.725
G1 F1350 X76.8 Y77.275 E245.98065
G0 F7200 X78.4 Y77.275
G1 F1350 X78.4 Y145.725 E265.69425
G0 F7200 X80 Y145.725
G1 F1350 X80 Y77.275 E285.40785
G0 F7200 X81.6 Y77.275
G1 F1350 X81.6 Y145.725 E305.12145
G0 F7200 X83.2 Y145.725
G1 F1350 X83.2 Y77.275 E324.83505
G0 F7200 X84.8 Y77.275
G1 F1350 X84.8 Y145.725 E344.54865
G0 F7200 X86.4 Y145.725
G1 F1350 X86.4 Y77.275 E364.26225
G0 F7200 X88 Y77.275
G1 F1350 X88 Y145.725 E383.97585
G0 F7200 X89.6 Y145.725
G1 F1350 X89.6 Y77.275 E403.68945
G0 F7200 X91.2 Y77.275
G1 F1350 X91.2 Y145.725 E423.40305
G0 F7200 X92.8 Y145.725
G1 F1350 X92.8 Y77.275 E443.11665
G0 F7200 X94.4 Y77.275
G1 F1350 X94.4 Y145.725 E462.83025
G0 F7200 X96 Y145.725
G1 F1350 X96 Y77.275 E482.54385
G0 F7200 X97.6 Y77.275
G1 F1350 X97.6 Y145.725 E502.25745
G0 F7200 X99.2 Y145.725
G1 F1350 X99.2 Y77.275 E521.97105
G0 F7200 X100.8 Y77.275
G1 F1350 X100.8 Y145.725 E541.68465
G0 F7200 X102.4 Y145.725
G1 F1350 X102.4 Y77.275 E561.39825
G0 F7200 X104 Y77.275
G1 F1350 X104 Y145.725 E581.11185
G0 F7200 X105.6 Y145.725
G1 F1350 X105.6 Y77.275 E600.82545
G0 F7200 X107.2 Y77.275
G1 F1350 X107.2 Y145.725 E620.53905
G0 F7200 X108.8 Y145.725
G1 F1350 X108.8 Y77.275 E640.25265
G0 F7200 X110.4 Y77.275
G1 F1350 X110.4 Y145.725 E659.96625
G0 F7200 X112 Y145.725
G1 F1350 X112 Y77.275 E679.67985
G0 F7200 X113.6 Y77.275
G1 F1350 X113.6 Y145.725 E699.39345
G0 F7200 X115.2 Y145.725
G1 F1350 X115.2 Y77.275 E719.10705
G0 F7200 X116.8 Y77.275
G1 F1350 X116.8 Y145.725 E738.82065
G0 F7200 X118.4 Y145.725
G1 F1350 X118.4 Y77.275 E758.53425
G0 F7200 X120 Y77.275
G1 F1350 X120 Y145.725 E778.24785
G0 F7200 X121.6 Y145.725
G1 F1350 X121.6 Y77.275 E797.96145
G0 F7200 X123.2 Y77.275
G1 F1350 X123.2 Y145.725 E817.67505
G0 F7200 X124.8 Y145.725
G1 F1350 X124.8 Y77.275 E837.38865
G0 F7200 X126.4 Y77.275
G1 F1350 X126.4 Y145.725 E857.10225
G0 F7200 X128 Y145.725
G1 F1350 X128 Y77.275 E876.81585
G0 F7200 X129.6 Y77.275
G1 F1350 X129.6 Y145.725 E896.52945
G0 F7200 X131.2 Y145.725
G1 F1350 X131.2 Y77.275 E916.24305
G0 F7200 X132.8 Y77.275
G1 F1350 X132.8 Y145.725 E935.95665
G0 F7200 X134.4 Y145.725
G1 F1350 X134.4 Y77.275 E955.67025
G0 F7200 X136 Y77.275
G1 F1350 X136 Y145.725 E975.38385
G0 F7200 X137.6 Y145.725
G1 F1350 X137.6 Y77.275 E995.09745
G0 F7200 X139.2 Y77.275
G1 F1350 X139.2 Y145.725 E1014.81105
G0 F7200 X140.8 Y145.725
G1 F1350 X140.8 Y77.275 E1034.52465
G0 F7200 X142.4 Y77.275
G1 F1350 X142.4 Y145.725 E1054.23825
G0 F7200 X144 Y145.725
G1 F1350 X144 Y77.275 E1073.95185
G0 F7200 X145.6 Y77.275
G1 F1350 X145.6 Y145.725 E1093.66545
G0 F7200 X147.2 Y145.725
G1 F1350 X147.2 Y77.275 E1113.37905
G0 F7200 X148.8 Y77.289
G1 F1350 X148.8 Y145.716 E1133.08602
G0 F7200 X150.4 Y145.606
G1 F1350 X150.4 Y77.411 E1152.72618
G0 F7200 X152 Y77.685
G1 F1350 X152 Y145.321 E1172.20535
G0 F7200 X153.6 Y144.847
G1 F1350 X153.6 Y78.15 E1191.41409
G0 F7200 X155.2 Y78.827
G1 F1350 X155.2 Y144.185 E1210.23719
G0 F7200 X156.8 Y143.27
G1 F1350 X156.8 Y79.713 E1228.54161
G0 F7200 X158.4 Y80.908
G1 F1350 X158.4 Y142.093 E1246.16289
G0 F7200 X160 Y140.514
G1 F1350 X160 Y82.495 E1262.87236
G0 F7200 X161.6 Y84.722
G1 F1350 X161.6 Y138.281 E1278.29735
G0 F7200 X163.2 Y134.458
G1 F1350 X163.2 Y88.547 E1291.51972
G0 F7200 X64 Y81.438
G1 F1350 X64 Y141.545 E1308.83054
G0 F7200 X62.4 Y139.766
G1 F1350 X62.4 Y83.218 E1325.11636
G0 F7200 X60.8 Y85.856
G1 F1350 X60.8 Y137.17 E1339.89479
G0 F600 X60.8 Y137.17 Z0.51
G0 F7200 X61.234 Y138.01
;TIME_ELAPSED:213.586807
;LAYER:-8
;TYPE:SUPPORT
G1 F1350 X61.284 Y138.093 E1339.90642
G1 X62.009 Y139.239 E1340.06915
G1 X62.141 Y139.428 E1340.09681
G1 X62.742 Y140.213 E1340.21545
G1 X63.453 Y141.016 E1340.34416
G1 X64.304 Y141.839 E1340.48622
G1 X64.457 Y141.974 E1340.5107
G1 X65.217 Y142.6 E1340.62886
G1 X66.099 Y143.222 E1340.75837
G1 X66.246 Y143.317 E1340.77937
G1 X67.045 Y143.792 E1340.89092
G1 X67.124 Y143.838 E1340.90189
G1 X67.267 Y143.911 E1340.92115
G1 X67.339 Y143.952 E1340.9311
G1 X67.425 Y143.995 E1340.94263
G1 X67.808 Y144.176 E1340.99347
G1 X60.797 Y137.165 E1342.18327
G1 X60.763 Y137.098 E1342.19229
G1 X60.71 Y136.986 E1342.20716
G1 X60.367 Y136.195 E1342.31062
G1 X60.024 Y135.241 E1342.43227
G1 X59.969 Y135.067 E1342.45417
G1 X59.914 Y134.867 E1342.47906
G1 X70.14 Y145.094 E1344.21456
G1 X70.159 Y145.1 E1344.21695
G1 X70.265 Y145.128 E1344.2301
G1 X71.192 Y145.363 E1344.34486
G1 X71.334 Y145.395 E1344.36233
G1 X71.608 Y145.45 E1344.39587
G1 X71.96 Y145.499 E1344.43851
G1 X59.49 Y133.029 E1346.55474
G1 X59.403 Y132.491 E1346.62014
G1 X59.37 Y132.144 E1346.66197
G1 X59.348 Y131.96 E1346.68421
G1 X59.314 Y131.484 E1346.74147
G1 X59.308 Y131.484 E1346.74219
G1 X59.305 Y131.429 E1346.7488
G1 X73.557 Y145.682 E1349.16753
G1 X74.408 Y145.719 E1349.26975
G1 X74.56 Y145.724 E1349.288
G1 X75.014 Y145.724 E1349.34248
G1 X59.275 Y129.986 E1352.01339
G1 X59.275 Y128.571 E1352.18319
G1 X76.428 Y145.724 E1355.09415
G1 X77.842 Y145.724 E1355.26383
G1 X59.275 Y127.157 E1358.41475
G1 X59.275 Y125.743 E1358.58443
G1 X79.256 Y145.724 E1361.97532
G1 X80.67 Y145.724 E1362.145
G1 X59.275 Y124.329 E1365.77585
G1 X59.275 Y122.914 E1365.94565
G1 X82.085 Y145.724 E1369.81664
G1 X83.499 Y145.724 E1369.98632
G1 X59.275 Y121.5 E1374.09727
G1 X59.275 Y120.086 E1374.26695
G1 X84.913 Y145.724 E1378.61786
G1 X86.327 Y145.724 E1378.78754
G1 X59.275 Y118.672 E1383.37842
G1 X59.275 Y117.258 E1383.5481
G1 X87.742 Y145.724 E1388.37902
G1 X89.156 Y145.724 E1388.5487
G1 X59.275 Y115.843 E1393.61968
G1 X59.275 Y114.429 E1393.78936
G1 X90.57 Y145.724 E1399.1003
G1 X91.984 Y145.724 E1399.26998
G1 X59.275 Y113.015 E1404.82088
G1 X59.275 Y111.601 E1404.99056
G1 X93.398 Y145.724 E1410.78142
G1 X94.813 Y145.724 E1410.95122
G1 X59.276 Y110.187 E1416.98205
G1 X59.276 Y108.773 E1417.15173
G1 X96.227 Y145.724 E1423.42252
G1 X97.641 Y145.724 E1423.5922
G1 X59.276 Y107.359 E1430.10296
G1 X59.276 Y105.945 E1430.27264
G1 X99.055 Y145.724 E1437.02336
G1 X100.469 Y145.724 E1437.19304
G1 X59.276 Y104.53 E1444.18381
G1 X59.276 Y103.116 E1444.35349
G1 X101.884 Y145.724 E1451.58431
G1 X103.298 Y145.724 E1451.75399
G1 X59.276 Y101.702 E1459.22477
G1 X59.276 Y100.288 E1459.39445
G1 X104.712 Y145.724 E1467.10519
G1 X106.126 Y145.724 E1467.27487
G1 X59.276 Y98.874 E1475.22558
G1 X59.276 Y97.459 E1475.39538
G1 X107.541 Y145.724 E1483.58622
G1 X108.955 Y145.724 E1483.7559
G1 X59.276 Y96.045 E1492.18671
G1 X59.276 Y94.631 E1492.35639
G1 X110.369 Y145.724 E1501.02716
G1 X111.783 Y145.724 E1501.19684
G1 X59.276 Y93.217 E1510.10757
G1 X59.276 Y92.437 E1510.20117
G1 X59.288 Y91.859 E1510.27055
G1 X59.291 Y91.818 E1510.27548
G1 X113.197 Y145.724 E1519.42363
G1 X114.612 Y145.724 E1519.59343
G1 X59.41 Y90.523 E1528.96144
G1 X59.551 Y89.598 E1529.07372
G1 X59.606 Y89.319 E1529.10784
G1 X59.609 Y89.307 E1529.10933
G1 X116.026 Y145.724 E1538.68361
G1 X117.44 Y145.724 E1538.85329
G1 X59.892 Y88.176 E1548.61951
G1 X59.894 Y88.171 E1548.62016
G1 X60.051 Y87.668 E1548.68339
G1 X60.086 Y87.57 E1548.69588
G1 X60.253 Y87.123 E1548.75314
G1 X118.854 Y145.724 E1558.69806
G1 X120.268 Y145.724 E1558.86774
G1 X60.671 Y86.127 E1568.98168
G1 X61.002 Y85.426 E1569.07471
G1 X61.043 Y85.342 E1569.08592
G1 X61.085 Y85.267 E1569.09624
G1 X61.132 Y85.174 E1569.10874
G1 X121.683 Y145.724 E1579.3845
G1 X123.097 Y145.724 E1579.55418
G1 X61.658 Y84.285 E1589.98073
G1 X61.682 Y84.246 E1589.98622
G1 X61.777 Y84.099 E1590.00723
G1 X62.234 Y83.447 E1590.10277
G1 X124.511 Y145.724 E1600.67153
G1 X125.925 Y145.724 E1600.84121
G1 X62.858 Y82.657 E1611.54403
G1 X63.023 Y82.458 E1611.57506
G1 X63.155 Y82.308 E1611.59903
G1 X63.532 Y81.917 E1611.66421
G1 X127.34 Y145.724 E1622.4927
G1 X128.754 Y145.724 E1622.66238
G1 X64.247 Y81.218 E1633.6095
G1 X64.732 Y80.786 E1633.68744
G1 X64.858 Y80.685 E1633.70682
G1 X65.012 Y80.568 E1633.73002
G1 X130.168 Y145.724 E1644.78736
G1 X131.582 Y145.724 E1644.95704
G1 X65.825 Y79.968 E1656.11629
G1 X66.69 Y79.418 E1656.2393
G1 X132.996 Y145.724 E1667.4918
G1 X134.411 Y145.724 E1667.6616
G1 X67.602 Y78.916 E1678.99938
G1 X67.881 Y78.772 E1679.03705
G1 X68.015 Y78.709 E1679.05482
G1 X68.568 Y78.468 E1679.12721
G1 X135.825 Y145.724 E1690.54102
G1 X137.239 Y145.724 E1690.7107
G1 X69.596 Y78.082 E1702.19001
G1 X69.758 Y78.024 E1702.21066
G1 X69.932 Y77.969 E1702.23256
G1 X70.689 Y77.76 E1702.3268
G1 X138.653 Y145.724 E1713.86067
G1 X140.067 Y145.724 E1714.03035
G1 X71.851 Y77.508 E1725.60699
G1 X72.499 Y77.404 E1725.68574
G1 X72.565 Y77.396 E1725.69372
G1 X72.853 Y77.37 E1725.72842
G1 X73.029 Y77.348 E1725.74971
G1 X73.1 Y77.343 E1725.75825
G1 X141.482 Y145.724 E1737.36297
G1 X142.896 Y145.724 E1737.53265
G1 X74.449 Y77.277 E1749.14849
G1 X74.562 Y77.274 E1749.16206
G1 X75.86 Y77.274 E1749.31782
G1 X144.31 Y145.724 E1760.93417
G1 X145.724 Y145.724 E1761.10385
G1 X77.274 Y77.274 E1772.7202
G1 X78.688 Y77.274 E1772.88988
G1 X147.139 Y145.724 E1784.50631
G1 X148.435 Y145.724 E1784.66183
G1 X148.549 Y145.721 E1784.67552
G1 X80.103 Y77.274 E1796.29127
G1 X81.517 Y77.274 E1796.46095
G1 X149.898 Y145.656 E1808.06568
G1 X149.97 Y145.651 E1808.07434
G1 X150.145 Y145.628 E1808.09552
G1 X150.342 Y145.61 E1808.11926
G1 X150.511 Y145.592 E1808.13965
G1 X151.146 Y145.49 E1808.21683
G1 X82.931 Y77.274 E1819.79339
G1 X84.345 Y77.274 E1819.96307
G1 X152.309 Y145.238 E1831.49694
G1 X153.067 Y145.03 E1831.59126
G1 X153.241 Y144.975 E1831.61316
G1 X153.402 Y144.917 E1831.6337
G1 X85.76 Y77.274 E1843.11301
G1 X87.174 Y77.274 E1843.28269
G1 X154.429 Y144.53 E1854.69633
G1 X154.986 Y144.289 E1854.76915
G1 X155.117 Y144.226 E1854.7866
G1 X155.395 Y144.082 E1854.82417
G1 X88.588 Y77.274 E1866.16178
G1 X90.002 Y77.274 E1866.33146
G1 X156.308 Y143.58 E1877.58396
G1 X157.173 Y143.031 E1877.7069
G1 X91.416 Y77.274 E1888.86623
G1 X92.831 Y77.274 E1889.03603
G1 X157.986 Y142.429 E1900.0932
G1 X158.211 Y142.257 E1900.12719
G1 X158.265 Y142.211 E1900.1357
G1 X158.751 Y141.78 E1900.21365
G1 X94.245 Y77.274 E1911.16068
G1 X95.659 Y77.274 E1911.33036
G1 X159.466 Y141.081 E1922.15877
G1 X159.843 Y140.69 E1922.22394
G1 X159.976 Y140.541 E1922.24791
G1 X160.14 Y140.341 E1922.27895
G1 X97.073 Y77.274 E1932.98177
G1 X98.487 Y77.274 E1933.15145
G1 X160.764 Y139.551 E1943.72021
G1 X161.224 Y138.896 E1943.81626
G1 X161.317 Y138.753 E1943.83673
G1 X161.341 Y138.713 E1943.84233
G1 X99.902 Y77.274 E1954.26887
G1 X101.316 Y77.274 E1954.43855
G1 X161.865 Y137.824 E1964.71414
G1 X161.913 Y137.731 E1964.7267
G1 X161.955 Y137.656 E1964.73701
G1 X161.996 Y137.571 E1964.74834
G1 X162.327 Y136.871 E1964.84126
G1 X102.73 Y77.274 E1974.9552
G1 X104.144 Y77.274 E1975.12488
G1 X162.746 Y135.876 E1985.06997
G1 X162.913 Y135.429 E1985.12723
