;FLAVOR:UltiGCode
;TIME:2401
;MATERIAL:2858
;MATERIAL2:0
;NOZZLE_DIAMETER:0.4
;MINX:82.406
;MINY:82.406
;MINZ:0.3
;MAXX:140.585
;MAXY:140.585
;MAXZ:4
;Generated with Cura_SteamEngine 4.12.1
M82 ;absolute extrusion mode
G0 F3000 Y50 ;avoid prime blob
G92 E0
G92 E0
G10
;LAYER_COUNT:38
;LAYER:0
M107
G0 F3600 X85.973 Y98.824 Z0.3
;TYPE:SKIRT
G11
G1 F1800 X86.632 Y98.343 E0.0979
G1 X87.344 Y97.912 E0.19778
G1 X88.089 Y97.546 E0.29738
G1 X88.858 Y97.249 E0.39631
G1 X89.653 Y97.018 E0.49565
G1 X90.457 Y96.858 E0.59403
G1 X91.292 Y96.767 E0.69482
G1 X92.118 Y96.75 E0.79396
G1 X92.499 Y96.767 E0.83973
G1 X92.889 Y96.057 E0.93693
G1 X93.344 Y95.379 E1.03492
G1 X93.867 Y94.728 E1.13512
G1 X94.432 Y94.139 E1.23306
G1 X95.078 Y93.574 E1.33605
G1 X95.732 Y93.098 E1.43312
G1 X96.439 Y92.67 E1.53229
G1 X97.178 Y92.305 E1.6312
G1 X97.957 Y92.003 E1.73146
G1 X98.74 Y91.774 E1.82935
G1 X99.584 Y91.607 E1.9326
G1 X100.392 Y91.522 E2.03009
G1 X101.217 Y91.505 E2.12911
G1 X102.041 Y91.559 E2.22821
G1 X102.867 Y91.688 E2.32853
G1 X103.666 Y91.884 E2.42725
G1 X104.458 Y92.154 E2.52766
G1 X105.198 Y92.481 E2.62474
G1 X105.941 Y92.888 E2.7264
G1 X106.251 Y93.086 E2.77054
G1 X106.939 Y92.67 E2.86702
G1 X107.276 Y92.494 E2.91265
G1 X107.26 Y91.685 E3.00975
G1 X107.314 Y90.858 E3.1092
G1 X107.442 Y90.036 E3.20903
G1 X107.64 Y89.232 E3.30839
G1 X107.905 Y88.452 E3.40724
G1 X108.245 Y87.682 E3.50825
G1 X108.642 Y86.963 E3.60681
G1 X109.094 Y86.287 E3.70439
G1 X109.628 Y85.622 E3.80674
G1 X110.187 Y85.04 E3.90357
G1 X110.82 Y84.485 E4.00459
G1 X111.491 Y83.995 E4.1043
G1 X112.193 Y83.571 E4.20271
G1 X112.935 Y83.205 E4.30199
G1 X113.714 Y82.903 E4.40225
G1 X114.492 Y82.676 E4.49951
G1 X115.338 Y82.508 E4.60301
G1 X116.146 Y82.423 E4.7005
G1 X116.972 Y82.406 E4.79964
G1 X117.796 Y82.46 E4.89874
G1 X118.616 Y82.587 E4.99831
G1 X119.42 Y82.785 E5.09767
G1 X120.208 Y83.053 E5.19755
G1 X120.958 Y83.383 E5.29588
G1 X121.689 Y83.785 E5.39599
G1 X122.376 Y84.244 E5.49513
G1 X123.034 Y84.774 E5.59652
G1 X123.616 Y85.333 E5.69336
G1 X124.176 Y85.973 E5.79541
G1 X124.657 Y86.632 E5.89331
G1 X125.088 Y87.344 E5.99319
G1 X125.454 Y88.089 E6.09279
G1 X125.751 Y88.858 E6.19172
G1 X125.982 Y89.653 E6.29106
G1 X126.142 Y90.455 E6.3892
G1 X126.233 Y91.291 E6.49011
G1 X126.25 Y92.117 E6.58925
G1 X126.233 Y92.499 E6.63514
G1 X126.941 Y92.888 E6.73208
G1 X127.621 Y93.344 E6.83033
G1 X128.272 Y93.867 E6.93053
G1 X128.861 Y94.432 E7.02848
G1 X129.422 Y95.073 E7.13069
G1 X129.903 Y95.733 E7.2287
G1 X130.33 Y96.439 E7.32771
G1 X130.693 Y97.173 E7.42597
G1 X130.997 Y97.956 E7.52676
G1 X131.226 Y98.741 E7.62489
G1 X131.392 Y99.581 E7.72764
G1 X131.478 Y100.391 E7.82538
G1 X131.495 Y101.217 E7.92452
G1 X131.441 Y102.041 E8.02362
G1 X131.312 Y102.867 E8.12394
G1 X131.116 Y103.666 E8.22266
G1 X130.845 Y104.46 E8.32334
G1 X130.521 Y105.195 E8.41973
G1 X130.111 Y105.943 E8.52209
G1 X129.914 Y106.251 E8.56596
G1 X130.33 Y106.939 E8.66244
G1 X130.513 Y107.291 E8.71005
G1 X131.32 Y107.275 E8.80691
G1 X132.131 Y107.33 E8.90445
G1 X132.948 Y107.457 E9.00367
G1 X133.759 Y107.656 E9.10387
G1 X134.539 Y107.921 E9.20273
G1 X135.299 Y108.256 E9.30239
G1 X136.024 Y108.655 E9.4017
G1 X136.711 Y109.114 E9.50085
G1 X137.362 Y109.637 E9.60105
G1 X137.957 Y110.209 E9.7001
G1 X138.506 Y110.836 E9.8001
G1 X138.992 Y111.501 E9.89894
G1 X139.426 Y112.218 E9.99952
G1 X139.781 Y112.94 E10.09606
G1 X140.088 Y113.729 E10.19766
G1 X140.316 Y114.51 E10.29529
G1 X140.482 Y115.351 E10.39816
G1 X140.568 Y116.161 E10.4959
G1 X140.585 Y116.987 E10.59505
G1 X140.531 Y117.812 E10.69426
G1 X140.402 Y118.641 E10.79493
G1 X140.206 Y119.436 E10.89319
G1 X139.935 Y120.23 E10.99387
G1 X139.611 Y120.965 E11.09026
G1 X139.201 Y121.713 E11.19262
G1 X138.746 Y122.391 E11.2906
G1 X138.223 Y123.042 E11.39081
G1 X137.652 Y123.637 E11.48977
G1 X137.029 Y124.183 E11.58917
G1 X136.359 Y124.673 E11.68878
G1 X135.647 Y125.104 E11.78866
G1 X134.902 Y125.47 E11.88826
G1 X134.133 Y125.767 E11.98718
G1 X133.336 Y125.999 E12.08679
G1 X132.521 Y126.16 E12.18648
G1 X131.699 Y126.248 E12.28569
G1 X130.873 Y126.265 E12.38483
G1 X130.493 Y126.249 E12.43047
G1 X130.111 Y126.943 E12.52553
G1 X129.656 Y127.621 E12.62351
G1 X129.133 Y128.272 E12.72372
G1 X128.568 Y128.861 E12.82166
G1 X127.922 Y129.426 E12.92465
G1 X127.268 Y129.902 E13.02172
G1 X126.561 Y130.33 E13.12089
G1 X126.249 Y130.493 E13.16313
G1 X126.265 Y131.307 E13.26083
G1 X126.211 Y132.131 E13.35992
G1 X126.084 Y132.948 E13.45914
G1 X125.885 Y133.759 E13.55935
G1 X125.62 Y134.539 E13.6582
G1 X125.285 Y135.299 E13.75787
G1 X124.886 Y136.024 E13.85717
G1 X124.427 Y136.711 E13.95632
G1 X123.897 Y137.369 E14.05771
G1 X123.331 Y137.957 E14.15565
G1 X122.704 Y138.506 E14.25565
G1 X122.039 Y138.992 E14.35449
G1 X121.327 Y139.423 E14.45437
G1 X120.592 Y139.785 E14.55269
G1 X119.813 Y140.087 E14.65294
G1 X119.03 Y140.316 E14.75084
G1 X118.188 Y140.482 E14.85383
G1 X117.379 Y140.568 E14.95145
G1 X116.553 Y140.585 E15.05059
G1 X115.729 Y140.531 E15.14969
G1 X114.9 Y140.402 E15.25036
G1 X114.109 Y140.207 E15.34812
G1 X113.305 Y139.933 E15.45005
G1 X112.576 Y139.611 E15.54569
G1 X111.829 Y139.202 E15.64788
G1 X111.148 Y138.745 E15.7463
G1 X110.497 Y138.222 E15.84651
G1 X109.901 Y137.65 E15.94564
G1 X109.354 Y137.024 E16.04539
G1 X108.868 Y136.359 E16.14423
G1 X108.437 Y135.647 E16.24411
G1 X108.071 Y134.902 E16.34371
G1 X107.774 Y134.133 E16.44264
G1 X107.542 Y133.336 E16.54225
G1 X107.381 Y132.521 E16.64194
G1 X107.293 Y131.712 E16.73959
G1 X107.275 Y130.862 E16.84161
G1 X107.291 Y130.513 E16.88354
G1 X106.559 Y130.112 E16.98369
G1 X106.249 Y129.914 E17.02783
G1 X105.561 Y130.33 E17.12431
G1 X104.822 Y130.695 E17.22322
G1 X104.043 Y130.997 E17.32348
G1 X103.26 Y131.226 E17.42137
G1 X102.416 Y131.393 E17.52462
G1 X101.608 Y131.478 E17.62211
G1 X100.783 Y131.495 E17.72113
G1 X99.959 Y131.441 E17.82023
G1 X99.133 Y131.312 E17.92055
G1 X98.334 Y131.116 E18.01927
G1 X97.54 Y130.845 E18.11995
G1 X96.8 Y130.518 E18.21703
G1 X96.059 Y130.112 E18.31842
G1 X95.378 Y129.655 E18.41684
G1 X94.727 Y129.132 E18.51705
G1 X94.137 Y128.566 E18.61516
G1 X93.574 Y127.922 E18.7178
G1 X93.098 Y127.268 E18.81487
G1 X92.67 Y126.561 E18.91405
G1 X92.305 Y125.822 E19.01295
G1 X92.003 Y125.043 E19.11321
G1 X91.774 Y124.26 E19.21111
G1 X91.607 Y123.416 E19.31435
G1 X91.522 Y122.608 E19.41185
G1 X91.505 Y121.783 E19.51087
G1 X91.559 Y120.959 E19.60996
G1 X91.688 Y120.133 E19.71028
G1 X91.884 Y119.334 E19.809
G1 X92.154 Y118.542 E19.90941
G1 X92.478 Y117.807 E20.0058
G1 X92.889 Y117.057 E20.10843
G1 X93.086 Y116.749 E20.1523
G1 X92.67 Y116.061 E20.24878
G1 X92.494 Y115.724 E20.29441
G1 X91.685 Y115.74 E20.39151
G1 X90.858 Y115.686 E20.49096
G1 X90.036 Y115.558 E20.59079
G1 X89.232 Y115.36 E20.69015
G1 X88.452 Y115.095 E20.789
G1 X87.682 Y114.755 E20.89001
G1 X86.963 Y114.358 E20.98857
G1 X86.287 Y113.906 E21.08615
G1 X85.622 Y113.372 E21.18849
G1 X85.04 Y112.813 E21.28533
G1 X84.484 Y112.179 E21.38652
G1 X83.994 Y111.508 E21.48623
G1 X83.567 Y110.801 E21.58534
G1 X83.205 Y110.065 E21.68376
G1 X82.903 Y109.286 E21.78402
G1 X82.676 Y108.508 E21.88128
G1 X82.508 Y107.662 E21.98478
G1 X82.423 Y106.854 E22.08227
G1 X82.406 Y106.028 E22.18142
G1 X82.46 Y105.204 E22.28051
G1 X82.587 Y104.384 E22.38008
G1 X82.785 Y103.58 E22.47944
G1 X83.053 Y102.792 E22.57932
G1 X83.383 Y102.042 E22.67765
G1 X83.785 Y101.311 E22.77776
G1 X84.244 Y100.624 E22.87691
G1 X84.774 Y99.966 E22.97829
G1 X85.333 Y99.384 E23.07513
G1 X85.973 Y98.824 E23.17718
G0 F3600 X86.528 Y98.903
G1 F1800 X87.178 Y98.469 E23.27097
G1 X87.876 Y98.086 E23.36651
G1 X88.605 Y97.766 E23.46205
G1 X89.352 Y97.512 E23.55673
G1 X90.122 Y97.323 E23.65187
G1 X90.899 Y97.203 E23.74622
G1 X91.702 Y97.149 E23.84279
G1 X92.492 Y97.166 E23.93761
G1 X92.742 Y97.189 E23.96774
G1 X93.014 Y96.641 E24.04116
G1 X93.437 Y95.942 E24.1392
G1 X93.9 Y95.311 E24.23312
G1 X94.428 Y94.709 E24.32921
G1 X94.991 Y94.168 E24.4229
G1 X95.634 Y93.654 E24.52168
G1 X96.278 Y93.224 E24.61461
G1 X96.971 Y92.844 E24.70945
G1 X97.694 Y92.524 E24.80433
G1 X98.451 Y92.266 E24.9003
G1 X99.21 Y92.079 E24.9941
G1 X100.026 Y91.954 E25.09316
G1 X100.8 Y91.904 E25.18624
G1 X101.591 Y91.921 E25.28118
G1 X102.378 Y92.007 E25.37618
G1 X103.166 Y92.164 E25.4726
G1 X103.918 Y92.383 E25.56659
G1 X104.668 Y92.675 E25.66317
G1 X105.364 Y93.017 E25.75623
G1 X106.055 Y93.436 E25.8532
G1 X106.25 Y93.573 E25.8818
G1 X106.778 Y93.224 E25.95775
G1 X107.471 Y92.844 E26.05259
G1 X107.698 Y92.738 E26.08266
G1 X107.659 Y92.1 E26.15936
G1 X107.676 Y91.309 E26.2543
G1 X107.762 Y90.521 E26.34942
G1 X107.917 Y89.739 E26.44509
G1 X108.139 Y88.978 E26.54021
G1 X108.425 Y88.242 E26.63497
G1 X108.782 Y87.519 E26.73173
G1 X109.19 Y86.847 E26.82607
G1 X109.65 Y86.218 E26.91958
G1 X110.188 Y85.604 E27.01754
G1 X110.746 Y85.069 E27.11031
G1 X111.376 Y84.563 E27.20727
G1 X112.038 Y84.122 E27.30272
G1 X112.727 Y83.743 E27.39709
G1 X113.45 Y83.424 E27.49192
G1 X114.209 Y83.166 E27.58811
G1 X114.962 Y82.98 E27.68119
G1 X115.78 Y82.855 E27.78049
G1 X116.556 Y82.805 E27.8738
G1 X116.955 Y82.805 E27.92168
G1 X117.744 Y82.857 E28.01657
G1 X118.529 Y82.978 E28.11188
G1 X119.3 Y83.166 E28.20711
G1 X120.055 Y83.422 E28.30278
G1 X120.774 Y83.739 E28.39707
G1 X121.475 Y84.122 E28.49293
G1 X122.132 Y84.561 E28.58775
G1 X122.763 Y85.068 E28.68488
G1 X123.322 Y85.604 E28.77782
G1 X123.858 Y86.215 E28.87535
G1 X124.32 Y86.847 E28.96929
G1 X124.733 Y87.528 E29.06487
G1 X125.084 Y88.242 E29.16034
G1 X125.37 Y88.978 E29.2551
G1 X125.592 Y89.739 E29.35022
G1 X125.745 Y90.508 E29.44431
G1 X125.834 Y91.308 E29.5409
G1 X125.851 Y92.099 E29.63584
G1 X125.811 Y92.742 E29.71315
G1 X126.364 Y93.017 E29.78727
G1 X127.055 Y93.436 E29.88424
G1 X127.689 Y93.9 E29.97852
G1 X128.291 Y94.428 E30.07461
G1 X128.832 Y94.991 E30.1683
G1 X129.342 Y95.628 E30.26622
G1 X129.777 Y96.281 E30.36038
G1 X130.156 Y96.971 E30.45485
G1 X130.474 Y97.689 E30.54908
G1 X130.734 Y98.45 E30.64558
G1 X130.922 Y99.213 E30.73988
G1 X131.045 Y100.021 E30.83796
G1 X131.096 Y100.801 E30.93176
G1 X131.079 Y101.591 E31.02658
G1 X130.993 Y102.378 E31.12158
G1 X130.836 Y103.166 E31.218
G1 X130.617 Y103.918 E31.31199
G1 X130.323 Y104.671 E31.40899
G1 X129.986 Y105.359 E31.50092
G1 X129.563 Y106.058 E31.59897
G1 X129.428 Y106.251 E31.62723
G1 X129.777 Y106.781 E31.70338
G1 X130.156 Y107.471 E31.79785
G1 X130.269 Y107.712 E31.82979
G1 X130.879 Y107.675 E31.90313
G1 X131.693 Y107.693 E32.00083
G1 X132.468 Y107.778 E32.09439
G1 X133.247 Y107.932 E32.18968
G1 X134.013 Y108.155 E32.28541
G1 X134.749 Y108.441 E32.38017
G1 X135.463 Y108.792 E32.47564
G1 X136.14 Y109.202 E32.57062
G1 X136.779 Y109.67 E32.66566
G1 X137.381 Y110.198 E32.76175
G1 X137.927 Y110.768 E32.85647
G1 X138.428 Y111.392 E32.9525
G1 X138.866 Y112.047 E33.04705
G1 X139.251 Y112.751 E33.14334
G1 X139.563 Y113.455 E33.23574
G1 X139.825 Y114.224 E33.33323
G1 X140.011 Y114.98 E33.42666
G1 X140.135 Y115.791 E33.52511
G1 X140.186 Y116.571 E33.61891
G1 X140.169 Y117.361 E33.71373
G1 X140.083 Y118.149 E33.80885
G1 X139.925 Y118.939 E33.90553
G1 X139.707 Y119.688 E33.99914
G1 X139.413 Y120.441 E34.09614
G1 X139.076 Y121.129 E34.18807
G1 X138.653 Y121.828 E34.28612
G1 X138.19 Y122.459 E34.38003
G1 X137.662 Y123.061 E34.47612
G1 X137.091 Y123.608 E34.57101
G1 X136.474 Y124.104 E34.66601
G1 X135.813 Y124.547 E34.7615
G1 X135.115 Y124.93 E34.85704
G1 X134.386 Y125.25 E34.95257
G1 X133.639 Y125.504 E35.04725
G1 X132.865 Y125.693 E35.14286
G1 X132.08 Y125.814 E35.23817
G1 X131.289 Y125.866 E35.3333
G1 X130.499 Y125.849 E35.42812
G1 X130.251 Y125.827 E35.458
G1 X129.986 Y126.359 E35.52932
G1 X129.563 Y127.058 E35.62736
G1 X129.1 Y127.689 E35.72128
G1 X128.572 Y128.291 E35.81737
G1 X128.009 Y128.832 E35.91107
G1 X127.366 Y129.346 E36.00985
G1 X126.722 Y129.776 E36.10277
G1 X126.029 Y130.156 E36.19761
G1 X125.828 Y130.25 E36.22424
G1 X125.866 Y130.891 E36.3013
G1 X125.849 Y131.681 E36.39612
G1 X125.763 Y132.468 E36.49112
G1 X125.609 Y133.247 E36.58641
G1 X125.386 Y134.013 E36.68215
G1 X125.1 Y134.749 E36.7769
G1 X124.749 Y135.463 E36.87237
G1 X124.339 Y136.14 E36.96735
G1 X123.871 Y136.779 E37.0624
G1 X123.336 Y137.388 E37.15967
G1 X122.772 Y137.927 E37.25329
G1 X122.148 Y138.428 E37.34931
G1 X121.493 Y138.866 E37.44387
G1 X120.795 Y139.249 E37.53941
G1 X120.076 Y139.566 E37.6337
G1 X119.319 Y139.824 E37.72967
G1 X118.56 Y140.011 E37.82348
G1 X117.747 Y140.136 E37.92218
G1 X116.969 Y140.186 E38.01574
G1 X116.179 Y140.169 E38.11056
G1 X115.392 Y140.083 E38.20556
G1 X114.602 Y139.925 E38.30224
G1 X113.855 Y139.708 E38.39558
G1 X113.095 Y139.412 E38.49346
G1 X112.41 Y139.075 E38.58507
G1 X111.715 Y138.654 E38.68257
G1 X111.078 Y138.187 E38.77736
G1 X110.478 Y137.661 E38.87311
G1 X109.932 Y137.091 E38.96782
G1 X109.432 Y136.468 E39.06368
G1 X108.994 Y135.813 E39.15824
G1 X108.611 Y135.115 E39.25378
G1 X108.291 Y134.386 E39.34932
G1 X108.037 Y133.639 E39.444
G1 X107.848 Y132.865 E39.53961
G1 X107.727 Y132.08 E39.63492
G1 X107.675 Y131.303 E39.72837
G1 X107.693 Y130.488 E39.82619
G1 X107.712 Y130.269 E39.85257
G1 X107.136 Y129.983 E39.92974
G1 X106.445 Y129.564 E40.02671
G1 X106.25 Y129.427 E40.05531
G1 X105.722 Y129.776 E40.13126
G1 X105.029 Y130.156 E40.2261
G1 X104.306 Y130.476 E40.32098
G1 X103.549 Y130.734 E40.41695
G1 X102.79 Y130.921 E40.51076
G1 X101.974 Y131.046 E40.60982
G1 X101.2 Y131.096 E40.70289
G1 X100.409 Y131.079 E40.79783
G1 X99.622 Y130.993 E40.89284
G1 X98.834 Y130.836 E40.98925
G1 X98.082 Y130.617 E41.08324
G1 X97.329 Y130.323 E41.18025
G1 X96.636 Y129.983 E41.27288
G1 X95.945 Y129.564 E41.36985
G1 X95.308 Y129.097 E41.46463
G1 X94.708 Y128.571 E41.56038
G1 X94.167 Y128.008 E41.65408
G1 X93.654 Y127.366 E41.75269
G1 X93.224 Y126.722 E41.84561
G1 X92.844 Y126.029 E41.94046
G1 X92.524 Y125.306 E42.03533
G1 X92.266 Y124.549 E42.13131
G1 X92.079 Y123.79 E42.22511
G1 X91.954 Y122.974 E42.32417
G1 X91.904 Y122.2 E42.41724
G1 X91.921 Y121.409 E42.51219
G1 X92.007 Y120.622 E42.60719
G1 X92.164 Y119.834 E42.70361
G1 X92.383 Y119.082 E42.7976
G1 X92.675 Y118.332 E42.89418
G1 X93.014 Y117.641 E42.98654
G1 X93.437 Y116.942 E43.08458
G1 X93.572 Y116.749 E43.11284
G1 X93.224 Y116.222 E43.18863
G1 X92.844 Y115.529 E43.28347
G1 X92.738 Y115.302 E43.31353
G1 X92.1 Y115.341 E43.39024
G1 X91.309 Y115.324 E43.48518
G1 X90.521 Y115.238 E43.5803
G1 X89.739 Y115.083 E43.67597
G1 X88.978 Y114.861 E43.77109
G1 X88.242 Y114.575 E43.86585
G1 X87.519 Y114.218 E43.96261
G1 X86.847 Y113.81 E44.05695
G1 X86.218 Y113.35 E44.15046
G1 X85.604 Y112.812 E44.24842
G1 X85.068 Y112.253 E44.34135
G1 X84.562 Y111.623 E44.43832
G1 X84.121 Y110.961 E44.53377
G1 X83.741 Y110.269 E44.62851
G1 X83.424 Y109.55 E44.7228
G1 X83.166 Y108.791 E44.819
G1 X82.98 Y108.038 E44.91208
G1 X82.855 Y107.22 E45.01138
G1 X82.805 Y106.444 E45.10469
G1 X82.822 Y105.654 E45.19951
G1 X82.908 Y104.867 E45.29451
G1 X83.063 Y104.087 E45.38994
G1 X83.284 Y103.325 E45.48515
G1 X83.572 Y102.583 E45.58066
G1 X83.92 Y101.877 E45.67512
G1 X84.332 Y101.195 E45.77073
G1 X84.8 Y100.556 E45.86578
G1 X85.335 Y99.947 E45.96305
G1 X85.892 Y99.413 E46.05565
G1 X86.528 Y98.903 E46.15347
G0 F3600 X86.458 Y99.46
G1 F1800 X87.062 Y99.017 E46.24336
G1 X87.713 Y98.622 E46.33473
G1 X88.395 Y98.285 E46.42602
G1 X89.098 Y98.012 E46.51652
G1 X89.826 Y97.799 E46.60754
G1 X90.563 Y97.651 E46.69775
G1 X91.326 Y97.566 E46.78987
G1 X92.083 Y97.549 E46.88073
G1 X92.848 Y97.599 E46.97273
G1 X92.989 Y97.618 E46.9898
G1 X93.369 Y96.825 E47.09533
G1 X93.774 Y96.157 E47.18907
G1 X94.218 Y95.554 E47.27893
G1 X94.723 Y94.979 E47.37076
G1 X95.262 Y94.462 E47.46038
G1 X95.876 Y93.972 E47.55465
G1 X96.493 Y93.561 E47.64361
G1 X97.156 Y93.198 E47.73432
G1 X97.848 Y92.893 E47.82507
G1 X98.571 Y92.648 E47.91667
G1 X99.298 Y92.469 E48.00652
G1 X100.076 Y92.351 E48.10094
G1 X100.818 Y92.304 E48.19016
G1 X101.573 Y92.321 E48.28079
G1 X102.326 Y92.404 E48.37169
G1 X103.079 Y92.555 E48.46385
G1 X103.798 Y92.764 E48.5537
G1 X104.514 Y93.044 E48.64596
G1 X105.18 Y93.372 E48.73505
G1 X105.84 Y93.773 E48.82772
G1 X106.25 Y94.068 E48.88833
