;FLAVOR:UltiGCode
;TIME:1427
;MATERIAL:1900
;MATERIAL2:0
;NOZZLE_DIAMETER:0.4
;MINX:96.809
;MINY:94.204
;MINZ:0.3
;MAXX:126.191
;MAXY:123.796
;MAXZ:5
;Generated with Cura_SteamEngine 4.12.1
M82 ;absolute extrusion mode
G0 F3000 Y50 ;avoid prime blob
G92 E0
G92 E0
G10
;LAYER_COUNT:48
;LAYER:0
M107
;MESH:Penyx - Spur gear (22 teeth) (1).stl
G0 F3600 X111.135 Y103.909 Z0.3
;TYPE:WALL-INNER
G11
G1 F1800 X111.624 Y103.95 E0.05889
G1 X112.096 Y103.824 E0.11751
G1 X112.494 Y103.544 E0.1759
G1 X112.777 Y103.141 E0.235
G1 X112.902 Y102.665 E0.29405
G1 X112.843 Y102.124 E0.35936
G1 X112.579 Y101.647 E0.42478
G1 X112.2 Y101.33 E0.48407
G1 X111.757 Y101.171 E0.54055
G1 X111.48 Y101.147 E0.57392
G1 X111.009 Y101.232 E0.63135
G1 X110.549 Y101.512 E0.69597
G1 X110.25 Y101.905 E0.75523
G1 X110.105 Y102.371 E0.81379
G1 X110.126 Y102.856 E0.87205
G1 X110.315 Y103.308 E0.93084
G1 X110.65 Y103.671 E0.99011
G1 X111.135 Y103.909 E1.05494
G0 F3600 X111.109 Y104.005
G0 X108.771 Y105.754
G0 X107.827 Y106.88
G0 X107.325 Y108.26
G0 X107.297 Y109.56
G0 X107.741 Y110.962
G0 X108.64 Y112.131
G0 X110.576 Y113.2
G0 X110.597 Y113.103
G1 F1800 X111.321 Y113.198 E1.14257
G1 X112.054 Y113.165 E1.23062
G1 X112.769 Y113.006 E1.31851
G1 X113.443 Y112.724 E1.40619
G1 X114.062 Y112.332 E1.49411
G1 X114.601 Y111.835 E1.58209
G1 X115.042 Y111.258 E1.66924
G1 X115.382 Y110.609 E1.75716
G1 X115.602 Y109.909 E1.84521
G1 X115.698 Y109.188 E1.93249
G1 X115.684 Y108.622 E2.00043
G1 X115.557 Y107.907 E2.08758
G1 X115.307 Y107.223 E2.17497
G1 X115.034 Y106.73 E2.24259
G1 X114.593 Y106.157 E2.32936
G1 X114.054 Y105.663 E2.41709
G1 X113.435 Y105.271 E2.50502
G1 X112.758 Y104.992 E2.59288
G1 X112.047 Y104.836 E2.68023
G1 X111.491 Y104.799 E2.7471
G1 X110.766 Y104.864 E2.83445
G1 X110.059 Y105.053 E2.92227
G1 X109.396 Y105.363 E3.0101
G1 X108.796 Y105.784 E3.09805
G1 X108.279 Y106.302 E3.18588
G1 X107.861 Y106.899 E3.27333
G1 X107.552 Y107.564 E3.36132
G1 X107.364 Y108.267 E3.44865
G1 X107.302 Y108.827 E3.51626
G1 X107.336 Y109.555 E3.60371
G1 X107.495 Y110.27 E3.69161
G1 X107.776 Y110.944 E3.77924
G1 X108.17 Y111.563 E3.86729
G1 X108.666 Y112.102 E3.95519
G1 X109.248 Y112.547 E4.0431
G1 X109.898 Y112.884 E4.13096
G1 X110.597 Y113.103 E4.21886
G0 F3600 X110.576 Y113.2
G0 X110.605 Y114.324
G0 X110.076 Y115.201
G0 X110.25 Y116.177
G0 X110.99 Y116.866
G0 X111.023 Y116.772
G1 F1800 X111.503 Y116.856 E4.27734
G1 X111.991 Y116.768 E4.33684
G1 X112.451 Y116.488 E4.40147
G1 X112.75 Y116.095 E4.46072
G1 X112.892 Y115.636 E4.51838
G1 X112.885 Y115.202 E4.57047
G1 X112.717 Y114.744 E4.62901
G1 X112.402 Y114.37 E4.68768
G1 X111.978 Y114.128 E4.74627
G1 X111.497 Y114.044 E4.80486
G1 X111.015 Y114.131 E4.86364
G1 X110.595 Y114.374 E4.92186
G1 X110.28 Y114.749 E4.98063
G1 X110.115 Y115.207 E5.03905
G1 X110.115 Y115.699 E5.09809
G1 X110.284 Y116.157 E5.15667
G1 X110.598 Y116.529 E5.21509
G1 X111.023 Y116.772 E5.27384
G10
G0 F3600 X110.99 Y116.866
G0 X112.019 Y120.242
G0 X112.006 Y121.042
G11
G0 X112.095 Y121.086
G1 F1800 X111.988 Y121.539 E5.32969
G1 X112.004 Y122.065 E5.39284
G1 X111.914 Y122.51 E5.44732
G1 X111.736 Y123.031 E5.51339
G1 X111.571 Y123.396 E5.56146
G1 X111.435 Y123.396 E5.57778
G1 X111.265 Y123.035 E5.62566
G1 X111.086 Y122.51 E5.69222
G1 X110.997 Y122.07 E5.74609
G1 X111.012 Y121.539 E5.80984
G1 X110.92 Y121.123 E5.86096
G1 X110.681 Y120.785 E5.91064
G1 X110.323 Y120.558 E5.96151
G1 X109.563 Y120.425 E6.05409
G1 X109.169 Y120.456 E6.10152
G1 X108.729 Y120.7 E6.1619
G1 X108.461 Y121.094 E6.21908
G1 X108.299 Y121.685 E6.29261
G1 X108.086 Y122.087 E6.34721
G1 X107.772 Y122.532 E6.41256
G1 X107.513 Y122.832 E6.46012
G1 X107.381 Y122.793 E6.47664
G1 X107.321 Y122.405 E6.52375
G1 X107.297 Y121.84 E6.59161
G1 X107.335 Y121.406 E6.64389
G1 X107.507 Y120.859 E6.7127
G1 X107.528 Y120.474 E6.75897
G1 X107.393 Y120.072 E6.80986
G1 X107.101 Y119.751 E6.86193
G1 X106.909 Y119.64 E6.88854
G1 X106.383 Y119.401 E6.95787
G1 X105.958 Y119.338 E7.00943
G1 X105.526 Y119.46 E7.0633
G1 X105.214 Y119.698 E7.11039
G1 X104.938 Y120.161 E7.17507
G1 X104.536 Y120.598 E7.24632
G1 X104.115 Y120.931 E7.31074
G1 X103.778 Y121.149 E7.3589
G1 X103.662 Y121.075 E7.37541
G1 X103.715 Y120.678 E7.42347
G1 X103.846 Y120.146 E7.48922
G1 X104.009 Y119.728 E7.54306
G1 X104.286 Y119.317 E7.60254
G1 X104.452 Y118.935 E7.65252
G1 X104.441 Y118.469 E7.70845
G1 X104.23 Y118.05 E7.76475
G1 X104.117 Y117.932 E7.78435
G1 X103.659 Y117.537 E7.85693
G1 X103.266 Y117.357 E7.9088
G1 X102.817 Y117.352 E7.96268
G1 X102.454 Y117.496 E8.00955
G1 X102.018 Y117.891 E8.08015
G1 X101.558 Y118.162 E8.14421
G1 X101.054 Y118.367 E8.2095
G1 X100.667 Y118.481 E8.25792
G1 X100.578 Y118.378 E8.27425
G1 X100.74 Y118.01 E8.3225
G1 X101.018 Y117.534 E8.38865
G1 X101.289 Y117.184 E8.44177
G1 X101.709 Y116.838 E8.50707
G1 X101.972 Y116.473 E8.56105
G1 X102.058 Y116.085 E8.60874
G1 X101.972 Y115.626 E8.66478
G1 X101.895 Y115.484 E8.68417
G1 X101.576 Y114.99 E8.75473
G1 X101.277 Y114.716 E8.8034
G1 X100.813 Y114.566 E8.86192
G1 X100.4 Y114.611 E8.91177
G1 X99.886 Y114.864 E8.98052
G1 X99.378 Y114.99 E9.04332
G1 X98.824 Y115.044 E9.11012
G1 X98.436 Y115.046 E9.15668
G1 X98.378 Y114.92 E9.17332
G1 X98.63 Y114.622 E9.22016
G1 X99.044 Y114.232 E9.28841
G1 X99.397 Y113.976 E9.34073
G1 X99.893 Y113.765 E9.40542
G1 X100.236 Y113.507 E9.45692
G1 X100.457 Y113.102 E9.51229
G1 X100.491 Y112.661 E9.56536
G1 X100.311 Y112.012 E9.64618
G1 X100.115 Y111.643 E9.69632
G1 X99.72 Y111.348 E9.75548
G1 X99.305 Y111.257 E9.80646
G1 X98.714 Y111.353 E9.87831
G1 X98.18 Y111.331 E9.94245
G1 X97.64 Y111.23 E10.00837
G1 X97.261 Y111.12 E10.05573
G1 X97.242 Y110.984 E10.07221
G1 X97.571 Y110.767 E10.1195
G1 X98.066 Y110.514 E10.18621
G1 X98.493 Y110.363 E10.24056
G1 X99.062 Y110.294 E10.30934
G1 X99.498 Y110.102 E10.36651
G1 X99.815 Y109.707 E10.42729
G1 X99.915 Y109.27 E10.48108
G1 X99.91 Y108.622 E10.55884
G1 X99.751 Y108.179 E10.61532
G1 X99.48 Y107.892 E10.66269
G1 X99.096 Y107.713 E10.71353
G1 X98.495 Y107.637 E10.78623
G1 X98.066 Y107.486 E10.8408
G1 X97.566 Y107.23 E10.90821
G1 X97.241 Y107.022 E10.95451
G1 X97.261 Y106.886 E10.97101
G1 X97.638 Y106.77 E11.01834
G1 X98.188 Y106.668 E11.08547
G1 X98.626 Y106.642 E11.13812
G1 X99.121 Y106.725 E11.19835
G1 X99.488 Y106.724 E11.24239
G1 X99.842 Y106.586 E11.28798
G1 X100.126 Y106.341 E11.33299
G1 X100.31 Y105.988 E11.38076
G1 X100.491 Y105.338 E11.46173
G1 X100.444 Y104.846 E11.52104
G1 X100.172 Y104.427 E11.58098
G1 X99.857 Y104.22 E11.62621
G1 X99.397 Y104.024 E11.68622
G1 X99.044 Y103.768 E11.73854
G1 X98.625 Y103.372 E11.80772
G1 X98.376 Y103.087 E11.85314
G1 X98.433 Y102.96 E11.86984
G1 X98.827 Y102.956 E11.91713
G1 X99.384 Y103.011 E11.98429
G1 X99.812 Y103.111 E12.03703
G1 X100.292 Y103.345 E12.10111
G1 X100.665 Y103.435 E12.14716
G1 X101.082 Y103.374 E12.19773
G1 X101.474 Y103.133 E12.25295
G1 X101.915 Y102.487 E12.34681
G1 X102.058 Y102.046 E12.40244
G1 X101.993 Y101.582 E12.45867
G1 X101.784 Y101.236 E12.50717
G1 X101.289 Y100.816 E12.58508
G1 X101.018 Y100.466 E12.63819
G1 X100.736 Y99.981 E12.70552
G1 X100.573 Y99.628 E12.75217
G1 X100.663 Y99.523 E12.76877
G1 X101.052 Y99.632 E12.81725
G1 X101.566 Y99.841 E12.88383
G1 X101.95 Y100.061 E12.93694
G1 X102.345 Y100.421 E13.00107
G1 X102.713 Y100.622 E13.05139
G1 X103.131 Y100.663 E13.10179
G1 X103.534 Y100.545 E13.15218
G1 X104.106 Y100.079 E13.24071
G1 X104.341 Y99.788 E13.2856
G1 X104.464 Y99.387 E13.33593
G1 X104.428 Y98.984 E13.38449
G1 X104.301 Y98.703 E13.42149
G1 X104.008 Y98.27 E13.48423
G1 X103.846 Y97.854 E13.5378
G1 X103.714 Y97.317 E13.60416
G1 X103.657 Y96.929 E13.65122
G1 X103.773 Y96.854 E13.66779
G1 X104.103 Y97.061 E13.71454
G1 X104.541 Y97.408 E13.78159
G1 X104.855 Y97.731 E13.83565
G1 X105.136 Y98.193 E13.90054
G1 X105.466 Y98.513 E13.9557
G1 X105.916 Y98.659 E14.01247
G1 X106.383 Y98.599 E14.06897
G1 X106.984 Y98.325 E14.14823
G1 X107.342 Y98.009 E14.20554
G1 X107.511 Y97.621 E14.25632
G1 X107.525 Y97.212 E14.30543
G1 X107.35 Y96.676 E14.37309
G1 X107.297 Y96.157 E14.4357
G1 X107.32 Y95.594 E14.50331
G1 X107.375 Y95.208 E14.5501
G1 X107.507 Y95.17 E14.56658
G1 X107.768 Y95.463 E14.61367
G1 X108.091 Y95.921 E14.68092
G1 X108.297 Y96.312 E14.73396
G1 X108.429 Y96.801 E14.79474
G1 X108.636 Y97.205 E14.84921
G1 X109.044 Y97.499 E14.90956
G1 X109.433 Y97.578 E14.95719
G1 X109.586 Y97.571 E14.97557
G1 X110.185 Y97.483 E15.04822
G1 X110.613 Y97.28 E15.10506
G1 X110.921 Y96.878 E15.16584
G1 X111.01 Y96.494 E15.21314
G1 X110.996 Y95.936 E15.28012
G1 X111.086 Y95.49 E15.33472
G1 X111.264 Y94.969 E15.40079
G1 X111.429 Y94.604 E15.44885
G1 X111.565 Y94.604 E15.46517
G1 X111.735 Y94.965 E15.51306
G1 X111.912 Y95.483 E15.57874
G1 X112.002 Y95.923 E15.63264
G1 X111.99 Y96.423 E15.69265
G1 X112.044 Y96.787 E15.73681
G1 X112.233 Y97.121 E15.78286
G1 X112.551 Y97.385 E15.83246
G1 X112.896 Y97.496 E15.87595
G1 X113.544 Y97.581 E15.95438
G1 X113.957 Y97.499 E16.0049
G1 X114.361 Y97.205 E16.06486
G1 X114.565 Y96.83 E16.11609
G1 X114.701 Y96.318 E16.17966
G1 X114.912 Y95.915 E16.23425
G1 X115.232 Y95.463 E16.30071
G1 X115.487 Y95.168 E16.3475
G1 X115.619 Y95.207 E16.36401
G1 X115.679 Y95.595 E16.41113
G1 X115.703 Y96.158 E16.47875
G1 X115.665 Y96.594 E16.53127
G1 X115.511 Y97.076 E16.59199
G1 X115.464 Y97.491 E16.64211
G1 X115.625 Y97.959 E16.7015
G1 X115.933 Y98.271 E16.75411
G1 X116.047 Y98.338 E16.76997
G1 X116.579 Y98.583 E16.84026
G1 X116.96 Y98.664 E16.887
G1 X117.444 Y98.56 E16.94641
G1 X117.823 Y98.254 E17.00486
G1 X118.098 Y97.791 E17.06948
G1 X118.462 Y97.404 E17.13324
G1 X118.885 Y97.069 E17.19799
G1 X119.222 Y96.851 E17.24615
G1 X119.338 Y96.925 E17.26266
G1 X119.285 Y97.322 E17.31072
G1 X119.154 Y97.854 E17.37647
G1 X118.992 Y98.271 E17.43015
G1 X118.687 Y98.723 E17.49559
G1 X118.533 Y99.161 E17.5513
G1 X118.6 Y99.665 E17.61231
G1 X118.857 Y100.046 E17.66746
G1 X119.341 Y100.464 E17.7442
G1 X119.775 Y100.653 E17.80101
G1 X120.285 Y100.626 E17.86229
G1 X120.682 Y100.397 E17.91729
G1 X121.05 Y100.061 E17.97709
G1 X121.428 Y99.845 E18.02933
G1 X121.953 Y99.632 E18.09732
G1 X122.333 Y99.519 E18.14489
G1 X122.422 Y99.622 E18.16123
G1 X122.26 Y99.99 E18.20948
G1 X121.982 Y100.466 E18.27563
G1 X121.713 Y100.814 E18.32841
G1 X121.293 Y101.16 E18.39371
G1 X121.027 Y101.529 E18.44829
G1 X120.943 Y101.948 E18.49957
G1 X121.015 Y102.333 E18.54658
G1 X121.082 Y102.481 E18.56607
G1 X121.407 Y102.988 E18.63834
G1 X121.707 Y103.273 E18.68799
G1 X122.106 Y103.422 E18.7391
G1 X122.527 Y103.411 E18.78964
G1 X123.051 Y103.16 E18.85936
G1 X123.625 Y103.01 E18.93055
G1 X124.176 Y102.956 E18.99699
G1 X124.564 Y102.954 E19.04355
G1 X124.622 Y103.081 E19.06031
G1 X124.373 Y103.374 E19.10645
G1 X123.956 Y103.768 E19.17529
G1 X123.603 Y104.024 E19.22762
G1 X123.102 Y104.238 E19.29299
G1 X122.741 Y104.521 E19.34804
G1 X122.546 Y104.895 E19.39865
G1 X122.507 Y105.283 E19.44545
G1 X122.531 Y105.445 E19.4651
G1 X122.698 Y106.015 E19.53637
G1 X122.865 Y106.329 E19.57905
G1 X123.203 Y106.615 E19.63218
G1 X123.684 Y106.745 E19.69197
G1 X124.286 Y106.647 E19.76516
G1 X124.82 Y106.669 E19.8293
G1 X125.36 Y106.77 E19.89522
G1 X125.738 Y106.88 E19.94246
G1 X125.758 Y107.017 E19.95908
G1 X125.43 Y107.232 E20.00614
G1 X124.934 Y107.486 E20.07301
G1 X124.507 Y107.637 E20.12736
G1 X123.941 Y107.706 E20.19578
G1 X123.541 Y107.876 E20.24794
G1 X123.23 Y108.213 E20.30297
G1 X123.094 Y108.598 E20.35197
G1 X123.085 Y109.291 E20.43513
G1 X123.167 Y109.665 E20.48108
G1 X123.408 Y110.014 E20.53197
G1 X123.821 Y110.268 E20.59016
G1 X124.433 Y110.345 E20.66417
G1 X124.932 Y110.513 E20.72736
G1 X125.434 Y110.77 E20.79503
G1 X125.759 Y110.977 E20.84127
G1 X125.739 Y111.114 E20.85789
G1 X125.362 Y111.23 E20.90522
G1 X124.812 Y111.332 E20.97234
G1 X124.374 Y111.358 E21.025
G1 X123.879 Y111.275 E21.08523
G1 X123.5 Y111.276 E21.13071
G1 X123.053 Y111.484 E21.18987
G1 X122.801 Y111.765 E21.23516
G1 X122.686 Y112.022 E21.26895
G1 X122.525 Y112.581 E21.33876
G1 X122.514 Y112.98 E21.38665
G1 X122.708 Y113.433 E21.44579
G1 X123.009 Y113.712 E21.49504
G1 X123.601 Y113.975 E21.57277
G1 X123.961 Y114.235 E21.62606
G1 X124.366 Y114.617 E21.69287
G1 X124.625 Y114.913 E21.74007
G1 X124.567 Y115.04 E21.75682
G1 X124.173 Y115.044 E21.80411
G1 X123.616 Y114.989 E21.87127
G1 X123.188 Y114.889 E21.92401
G1 X122.707 Y114.655 E21.9882
G1 X122.331 Y114.564 E22.03462
G1 X121.874 Y114.639 E22.0902
G1 X121.485 Y114.916 E22.1475
G1 X121.39 Y115.041 E22.16634
G1 X121.064 Y115.549 E22.23878
G1 X120.94 Y116 E22.2949
G1 X121.023 Y116.465 E22.35159
G1 X121.296 Y116.842 E22.40744
G1 X121.714 Y117.188 E22.47256
G1 X121.976 Y117.525 E22.52378
G1 X122.267 Y118.024 E22.5931
G1 X122.427 Y118.372 E22.63906
G1 X122.337 Y118.476 E22.65557
G1 X121.957 Y118.37 E22.70291
G1 X121.428 Y118.155 E22.77143
G1 X121.05 Y117.939 E22.82367
G1 X120.655 Y117.579 E22.88781
G1 X120.286 Y117.376 E22.93834
G1 X119.868 Y117.338 E22.98871
G1 X119.484 Y117.449 E23.03668
G1 X119.292 Y117.578 E23.06443
G1 X118.814 Y117.996 E23.14063
G1 X118.583 Y118.384 E23.19482
G1 X118.535 Y118.847 E23.25068
G1 X118.688 Y119.28 E23.30579
G1 X118.989 Y119.723 E23.37006
G1 X119.151 Y120.136 E23.42329
G1 X119.286 Y120.683 E23.4909
G1 X119.343 Y121.071 E23.53796
G1 X119.228 Y121.146 E23.55444
G1 X118.884 Y120.931 E23.60312
G1 X118.463 Y120.597 E23.6676
G1 X118.148 Y120.272 E23.72192
G1 X117.884 Y119.839 E23.78277
G1 X117.567 Y119.508 E23.83777
G1 X117.099 Y119.343 E23.89732
G1 X116.698 Y119.376 E23.9456
G1 X116.554 Y119.429 E23.96401
G1 X116.041 Y119.663 E24.03168
G1 X115.709 Y119.926 E24.0825
G1 X115.499 Y120.335 E24.13767
G1 X115.468 Y120.751 E24.18773
G1 X115.638 Y121.269 E24.25315
G1 X115.703 Y121.84 E24.32212
G1 X115.68 Y122.406 E24.39009
G1 X115.625 Y122.792 E24.43688
G1 X115.493 Y122.83 E24.45336
G1 X115.228 Y122.532 E24.50122
G1 X114.909 Y122.08 E24.56761
G1 X114.702 Y121.686 E24.62101
G1 X114.573 Y121.207 E24.68054
G1 X114.393 Y120.836 E24.73002
G1 X114.069 Y120.557 E24.78133
G1 X113.69 Y120.429 E24.82934
G1 X113.425 Y120.428 E24.86114
G1 X112.815 Y120.517 E24.93511
G1 X112.394 Y120.717 E24.99104
G1 X112.095 Y121.086 E25.04804
G0 F3600 X112.463 Y121.267
;TYPE:WALL-OUTER
G1 F1800 X112.389 Y121.58 E25.08663
G1 X112.405 Y122.098 E25.14882
G1 X112.302 Y122.611 E25.21161
G1 X112.104 Y123.19 E25.28504
G1 X111.897 Y123.648 E25.34535
G1 X111.819 Y123.796 E25.36543
G1 X111.181 Y123.796 E25.44199
G1 X110.896 Y123.19 E25.52235
G1 X110.698 Y122.611 E25.59578
G1 X110.596 Y122.103 E25.65795
G1 X110.611 Y121.577 E25.7211
G1 X110.547 Y121.288 E25.75662
G1 X110.4 Y121.08 E25.78719
G1 X110.176 Y120.938 E25.81901
G1 X109.544 Y120.828 E25.89599
G1 X109.287 Y120.848 E25.92692
G1 X109.006 Y121.004 E25.96549
G1 X108.829 Y121.264 E26.00324
G1 X108.673 Y121.834 E26.07415
G1 X108.431 Y122.292 E26.13631
G1 X108.082 Y122.785 E26.2088
G1 X107.749 Y123.171 E26.26997
G1 X107.638 Y123.285 E26.28906
G1 X107.025 Y123.106 E26.3657
G1 X106.922 Y122.438 E26.4468
G1 X106.896 Y121.84 E26.51863
G1 X106.941 Y121.324 E26.58079
G1 X107.11 Y120.787 E26.64834
G1 X107.124 Y120.529 E26.67935
G1 X107.04 Y120.279 E26.711
G1 X106.847 Y120.066 E26.74549
G1 X106.726 Y119.996 E26.76226
G1 X106.269 Y119.788 E26.82251
G1 X105.984 Y119.746 E26.85708
G1 X105.708 Y119.824 E26.8915
G1 X105.518 Y119.969 E26.92018
G1 X105.259 Y120.402 E26.98073
G1 X104.811 Y120.889 E27.06013
G1 X104.343 Y121.26 E27.1318
G1 X103.914 Y121.537 E27.19308
G1 X103.77 Y121.619 E27.21296
G1 X103.232 Y121.273 E27.28972
G1 X103.32 Y120.611 E27.36986
G1 X103.465 Y120.022 E27.44265
G1 X103.651 Y119.543 E27.50431
G1 X103.934 Y119.124 E27.56499
G1 X104.05 Y118.857 E27.59992
G1 X104.043 Y118.569 E27.63449
G1 X103.899 Y118.283 E27.67292
G1 X103.841 Y118.222 E27.68302
G1 X103.441 Y117.877 E27.7464
G1 X103.177 Y117.756 E27.78125
G1 X102.891 Y117.753 E27.81558
G1 X102.669 Y117.841 E27.84423
G1 X102.255 Y118.216 E27.91126
G1 X101.74 Y118.519 E27.98297
G1 X101.18 Y118.747 E28.05552
G1 X100.686 Y118.893 E28.11734
G1 X100.527 Y118.93 E28.13693
G1 X100.109 Y118.447 E28.21358
G1 X100.383 Y117.829 E28.2947
G1 X100.684 Y117.312 E28.36649
